; G-Code generated by Simplify3D(R) Version 2.2.2
; mai 31, 2015 at 12:52:27 
; Settings Summary
;   processName,Process1
;   applyToModels,aquaMonitorCaseCover
;   profileLabel,Wanhao Duplicator 4/4X Dual (right extruder)
;   printMaterial,ABS
;   printQuality,High
;   extruderName,Right Extruder,Left Extruder
;   extruderToolheadNumber,0,1
;   extruderDiameter,0.4,0.4
;   extruderAutoWidth,0,0
;   extruderWidth,0.4,0.4
;   extrusionMultiplier,1,1
;   extruderUseRetract,1,1
;   extruderRetractionDistance,1,1
;   extruderExtraRestartDistance,0,0
;   extruderRetractionZLift,0,0
;   extruderRetractionSpeed,1200,1200
;   extruderUseCoasting,0,0
;   extruderCoastingDistance,0.2,0.2
;   extruderUseWipe,0,0
;   extruderWipeDistance,5,5
;   primaryExtruder,0
;   layerHeight,0.1
;   topSolidLayers,4
;   bottomSolidLayers,4
;   perimeterOutlines,4
;   printPerimetersInsideOut,1
;   startPointOption,2
;   startPointOriginX,0
;   startPointOriginY,0
;   startPointOriginZ,300
;   sequentialIslands,0
;   spiralVaseMode,0
;   firstLayerHeightPercentage,90
;   firstLayerWidthPercentage,100
;   firstLayerUnderspeed,0.5
;   useRaft,0
;   raftExtruder,0
;   raftLayers,3
;   raftOffset,3
;   raftSeparationDistance,0.14
;   raftInfill,85
;   disableRaftBaseLayers,0
;   useSkirt,0
;   skirtExtruder,0
;   skirtLayers,2
;   skirtOutlines,2
;   skirtOffset,4
;   infillExtruder,0
;   externalInfillPattern,Rectilinear
;   infillPercentage,30
;   outlineOverlapPercentage,50
;   infillExtrusionWidthPercentage,100
;   minInfillLength,5
;   infillLayerInterval,1
;   randomInfillStartPoint,0
;   infillAngles,45,-45
;   generateSupport,1
;   supportExtruder,0
;   supportInfill,14
;   supportExtraInflation,0.2
;   denseSupportLayers,0
;   denseSupportInfill,60
;   supportLayerInterval,1
;   supportHorizontalPartOffset,0.3
;   supportUpperSeparationLayers,1
;   supportLowerSeparationLayers,1
;   supportGridSpacing,4
;   maxOverhangAngle,45
;   supportAngles,0
;   temperatureName,Right Extruder,Left Extruder,Heated Build Platform
;   temperatureNumber,0,1,0
;   temperatureSetpointCount,1,1,1
;   temperatureSetpointLayers,1,1,1
;   temperatureSetpointTemperatures,230,0,110
;   temperatureStabilizeAtStartup,0,0,0
;   temperatureHeatedBed,0,0,1
;   temperatureRelayBetweenLayers,0,0,0
;   temperatureRelayBetweenLoops,0,0,0
;   fanLayers,1
;   fanSpeeds,0
;   blipFanToFullPower,0
;   adjustSpeedForCooling,1
;   minSpeedLayerTime,15
;   minCoolingSpeedSlowdown,20
;   increaseFanForCooling,0
;   minFanLayerTime,45
;   maxCoolingFanSpeed,100
;   increaseFanForBridging,1
;   bridgingFanSpeed,100
;   use5D,1
;   relativeEdistances,1
;   allowEaxisZeroing,0
;   independentExtruderAxes,1
;   includeM10123,0
;   stickySupport,1
;   detectArcs,0
;   arcReplaceG2G3,0
;   arcRadialCompensation,1
;   gcodeXoffset,0
;   gcodeYoffset,0
;   gcodeZoffset,0
;   overrideMachineDefinition,1
;   machineTypeOverride,0
;   strokeXoverride,220
;   strokeYoverride,140
;   strokeZoverride,150
;   originOffsetXoverride,110
;   originOffsetYoverride,70
;   originOffsetZoverride,0
;   homeXdirOverride,1
;   homeYdirOverride,1
;   homeZdirOverride,-1
;   flipXoverride,1
;   flipYoverride,-1
;   flipZoverride,1
;   startingGcode,; **** Duplicator 4 dual start.gcode ****,M73 P0 ; enable build progress,G162 X Y F3000 ; home XY maximum,G161 Z F1200 ; home Z minimum,G92 Z-5 ; set Z to -5,G1 Z0 ; move Z to 0,G161 Z F100 ; home Z slowly,M132 X Y Z A B ; recall home offsets,M135 T0 ; load right extruder offsets,G1 X-120 Y-70 Z30 F9000 ; move to wait position off table,G130 X20 Y20 Z20 A20 B20 ; lower stepper Vrefs while heating,M126 S[fan_speed_pwm],M140 S[bed0_temperature] T0,M134 T0 ; stabilize bed temperature,M104 S[extruder0_temperature] T0,M133 T0 ; stabilize extruder temperature,G130 X127 Y127 Z40 A127 B127 ; default stepper Vrefs,G92 A0 B0 ; zero extruders,G1 Z0.4 ; position nozzle,G1 E25 F300 ; purge nozzle,G1 X-115 Y-65 Z0.15 F1200 ; slow wipe,G1 X-110 Y-60 Z0.5 F1200 ; lift,G92 A0 B0 ; zero extruders,M73 P1 ;@body (notify GPX body has started),; **** end of start.gcode ****
;   layerChangeGcode,
;   toolChangeGcode,
;   endingGcode,; **** Duplicator 4 dual end.gcode ****,M73 P100 ; end build progress,G1 Z150 F1000 ; send Z axis to bottom of machine,M140 S0 T0 ; cool down HBP,M104 S0 T0 ; cool down right extruder,M104 S0 T1 ; cool down left extruder,M127 ; stop blower fan,G162 X Y F3000 ; home XY maximum,M18 ; disable stepper,M72 P1 ; play Ta-Da song,; **** end of end.gcode ****
;   createX3G,1
;   celebration,0
;   celebrationSong,Random Song
;   createMB5G,0
;   postProcessing,
;   defaultSpeed,3600
;   outlineUnderspeed,0.5
;   solidInfillUnderspeed,0.8
;   supportUnderspeed,0.8
;   rapidXYspeed,4200
;   rapidZspeed,1200
;   minBridgingArea,50
;   bridgingExtrusionMultiplier,1
;   bridgingSpeedMultiplier,0.8
;   filamentDiameter,1.75
;   filamentPricePerKg,46
;   useMinPrintHeight,0
;   minPrintHeight,0
;   useMaxPrintHeight,0
;   maxPrintHeight,0
;   useDiaphragm,0
;   diaphragmLayerInterval,20
;   robustSlicing,1
;   mergeAllIntoSolid,0
;   onlyRetractWhenCrossingOutline,1
;   retractBetweenLayers,1
;   useRetractionMinTravel,0
;   retractionMinTravel,3
;   useRetractionOozeRate,0
;   retractionOozeRate,100
;   onlyWipeOutlines,1
;   toolChangeRetractionDistance,12
;   toolChangeExtraRestartDistance,-0.5
;   toolChangeRetractionSpeed,600
;   allowThinWallGapFill,1
;   thinWallAllowedOverlapPercentage,10
;   horizontalSizeCompensation,0
G90
M83
; **** Duplicator 4 dual start.gcode ****
M73 P0 ; enable build progress
G162 X Y F3000 ; home XY maximum
G161 Z F1200 ; home Z minimum
G92 Z-5 ; set Z to -5
G1 Z0 ; move Z to 0
G161 Z F100 ; home Z slowly
M132 X Y Z A B ; recall home offsets
M135 T0 ; load right extruder offsets
G1 X-120 Y-70 Z30 F9000 ; move to wait position off table
G130 X20 Y20 Z20 A20 B20 ; lower stepper Vrefs while heating
M127
M140 S110 T0
M134 T0 ; stabilize bed temperature
M104 S230 T0
M133 T0 ; stabilize extruder temperature
G130 X127 Y127 Z40 A127 B127 ; default stepper Vrefs
G92 A0 B0 ; zero extruders
G1 Z0.4 ; position nozzle
G1 E25 F300 ; purge nozzle
G1 X-115 Y-65 Z0.15 F1200 ; slow wipe
G1 X-110 Y-60 Z0.5 F1200 ; lift
G92 A0 B0 ; zero extruders
M73 P1 ;@body (notify GPX body has started)
; **** end of start.gcode ****
G1 E-1 F1200
G1 Z0.09 F1200
; layer 1, Z = 0.09
M135 T0
; tool H0.1 W0.4
G1 X21.901 Y32.36 F4200
G1 E1 F360
G1 X-79.799 Y32.36 E1.6913 F1575
G1 X-79.799 Y29.362 E0.0499
G1 X-79.519 Y29.327 E0.0047
G1 X-79.368 Y29.917 E0.0101
G1 X-79.016 Y30.557 E0.0121
G1 X-78.517 Y31.089 E0.0121
G1 X-77.901 Y31.48 E0.0121
G1 X-77.206 Y31.705 E0.0121
G1 X-76.478 Y31.751 E0.0121
G1 X-75.761 Y31.614 E0.0121
G1 X-75.101 Y31.304 E0.0121
G1 X-74.539 Y30.839 E0.0121
G1 X-74.11 Y30.248 E0.0121
G1 X-73.841 Y29.57 E0.0121
G1 X-73.75 Y28.846 E0.0121
G1 X-73.841 Y28.122 E0.0121
G1 X-74.11 Y27.443 E0.0121
G1 X-74.539 Y26.853 E0.0121
G1 X-75.101 Y26.388 E0.0121
G1 X-75.761 Y26.077 E0.0121
G1 X-76.478 Y25.94 E0.0121
G1 X-77.206 Y25.986 E0.0121
G1 X-77.901 Y26.212 E0.0121
G1 X-78.517 Y26.603 E0.0121
G1 X-79.016 Y27.135 E0.0121
G1 X-79.368 Y27.774 E0.0121
G1 X-79.519 Y28.365 E0.0101
G1 X-79.799 Y28.329 E0.0047
G1 X-79.799 Y-40.638 E1.1469
G1 X-79.519 Y-40.673 E0.0047
G1 X-79.368 Y-40.083 E0.0101
G1 X-79.016 Y-39.443 E0.0121
G1 X-78.517 Y-38.911 E0.0121
G1 X-77.901 Y-38.52 E0.0121
G1 X-77.206 Y-38.295 E0.0121
G1 X-76.478 Y-38.249 E0.0121
G1 X-75.761 Y-38.386 E0.0121
G1 X-75.101 Y-38.696 E0.0121
G1 X-74.539 Y-39.161 E0.0121
G1 X-74.11 Y-39.752 E0.0121
G1 X-73.841 Y-40.43 E0.0121
G1 X-73.75 Y-41.154 E0.0121
G1 X-73.841 Y-41.878 E0.0121
G1 X-74.11 Y-42.557 E0.0121
G1 X-74.539 Y-43.147 E0.0121
G1 X-75.101 Y-43.612 E0.0121
G1 X-75.761 Y-43.923 E0.0121
G1 X-76.426 Y-44.05 E0.0112
G1 X-76.398 Y-44.34 E0.0048
G1 X18.034 Y-44.34 E1.5704
G1 X18.044 Y-44.03 E0.0052
G1 X17.794 Y-44.014 E0.0042
G1 X17.099 Y-43.788 E0.0121
G1 X16.483 Y-43.397 E0.0121
G1 X15.984 Y-42.865 E0.0121
G1 X15.632 Y-42.226 E0.0121
G1 X15.451 Y-41.519 E0.0121
G1 X15.451 Y-40.789 E0.0121
G1 X15.632 Y-40.083 E0.0121
G1 X15.984 Y-39.443 E0.0121
G1 X16.483 Y-38.911 E0.0121
G1 X17.099 Y-38.52 E0.0121
G1 X17.794 Y-38.295 E0.0121
G1 X18.522 Y-38.249 E0.0121
G1 X19.239 Y-38.386 E0.0121
G1 X19.899 Y-38.696 E0.0121
G1 X20.461 Y-39.161 E0.0121
G1 X20.89 Y-39.752 E0.0121
G1 X21.159 Y-40.43 E0.0121
G1 X21.25 Y-41.154 E0.0121
G1 X21.159 Y-41.878 E0.0121
G1 X20.89 Y-42.557 E0.0121
G1 X20.461 Y-43.147 E0.0121
G1 X19.899 Y-43.612 E0.0121
G1 X19.239 Y-43.923 E0.0121
G1 X18.574 Y-44.05 E0.0112
G1 X18.602 Y-44.34 E0.0048
G1 X21.901 Y-44.34 E0.0549
G1 X21.901 Y32.36 E1.2755
G1 X22.301 Y32.76 F4200
G1 X-80.199 Y32.76 E1.7046 F1350
G1 X-80.199 Y-44.739 E1.2888
G1 X22.301 Y-44.739 E1.7046
G1 X22.301 Y32.76 E1.2888
G1 X22.701 Y33.16 F4200
G1 X-80.599 Y33.16 E1.7179 F1125
G1 X-80.599 Y-45.139 E1.3021
G1 X22.701 Y-45.139 E1.7179
G1 X22.701 Y33.16 E1.3021
G1 X23.101 Y33.56 F4200
G1 X-80.999 Y33.56 E1.7312 F900
G1 X-80.999 Y-45.539 E1.3154
G1 X23.101 Y-45.539 E1.7312
G1 X23.101 Y33.56 E1.3154
G1 E-1 F1200
G1 X16.483 Y26.603 F4200
G1 E1 F1200
G1 X15.984 Y27.135 E0.0121 F1575
G1 X15.632 Y27.774 E0.0121
G1 X15.451 Y28.481 E0.0121
G1 X15.451 Y29.211 E0.0121
G1 X15.632 Y29.917 E0.0121
G1 X15.984 Y30.557 E0.0121
G1 X16.483 Y31.089 E0.0121
G1 X17.099 Y31.48 E0.0121
G1 X17.794 Y31.705 E0.0121
G1 X18.522 Y31.751 E0.0121
G1 X19.239 Y31.614 E0.0121
G1 X19.899 Y31.304 E0.0121
G1 X20.461 Y30.839 E0.0121
G1 X20.89 Y30.248 E0.0121
G1 X21.159 Y29.57 E0.0121
G1 X21.25 Y28.846 E0.0121
G1 X21.159 Y28.122 E0.0121
G1 X20.89 Y27.443 E0.0121
G1 X20.461 Y26.853 E0.0121
G1 X19.899 Y26.388 E0.0121
G1 X19.239 Y26.077 E0.0121
G1 X18.522 Y25.94 E0.0121
G1 X17.794 Y25.986 E0.0121
G1 X17.099 Y26.212 E0.0121
G1 X16.483 Y26.603 E0.0121
G1 X16.74 Y26.913 F4200
G1 X16.31 Y27.372 E0.0105 F1350
G1 X16.007 Y27.923 E0.0105
G1 X15.851 Y28.531 E0.0105
G1 X15.851 Y29.16 E0.0105
G1 X16.007 Y29.769 E0.0105
G1 X16.31 Y30.32 E0.0105
G1 X16.74 Y30.778 E0.0105
G1 X17.271 Y31.115 E0.0105
G1 X17.869 Y31.309 E0.0105
G1 X18.496 Y31.349 E0.0105
G1 X19.114 Y31.231 E0.0105
G1 X19.683 Y30.963 E0.0105
G1 X20.167 Y30.563 E0.0105
G1 X20.537 Y30.054 E0.0105
G1 X20.768 Y29.469 E0.0105
G1 X20.847 Y28.846 E0.0105
G1 X20.768 Y28.222 E0.0105
G1 X20.537 Y27.638 E0.0105
G1 X20.167 Y27.129 E0.0105
G1 X19.683 Y26.728 E0.0105
G1 X19.114 Y26.461 E0.0105
G1 X18.496 Y26.343 E0.0105
G1 X17.869 Y26.382 E0.0105
G1 X17.271 Y26.576 E0.0105
G1 X16.74 Y26.913 E0.0105
G1 X16.997 Y27.224 F4200
G1 X16.636 Y27.609 E0.0088 F1125
G1 X16.382 Y28.071 E0.0088
G1 X16.251 Y28.582 E0.0088
G1 X16.251 Y29.11 E0.0088
G1 X16.382 Y29.621 E0.0088
G1 X16.636 Y30.083 E0.0088
G1 X16.997 Y30.468 E0.0088
G1 X17.443 Y30.75 E0.0088
G1 X17.945 Y30.913 E0.0088
G1 X18.471 Y30.946 E0.0088
G1 X18.989 Y30.848 E0.0088
G1 X19.467 Y30.623 E0.0088
G1 X19.873 Y30.287 E0.0088
G1 X20.183 Y29.86 E0.0088
G1 X20.378 Y29.369 E0.0088
G1 X20.444 Y28.846 E0.0088
G1 X20.378 Y28.322 E0.0088
G1 X20.183 Y27.832 E0.0088
G1 X19.873 Y27.405 E0.0088
G1 X19.467 Y27.069 E0.0088
G1 X18.989 Y26.844 E0.0088
G1 X18.471 Y26.745 E0.0088
G1 X17.945 Y26.778 E0.0088
G1 X17.443 Y26.941 E0.0088
G1 X16.997 Y27.224 E0.0088
G1 X17.254 Y27.535 F4200
G1 X16.962 Y27.846 E0.0071 F900
G1 X16.757 Y28.219 E0.0071
G1 X16.651 Y28.632 E0.0071
G1 X16.651 Y29.059 E0.0071
G1 X16.757 Y29.472 E0.0071
G1 X16.962 Y29.846 E0.0071
G1 X17.254 Y30.157 E0.0071
G1 X17.614 Y30.385 E0.0071
G1 X18.02 Y30.517 E0.0071
G1 X18.446 Y30.544 E0.0071
G1 X18.865 Y30.464 E0.0071
G1 X19.251 Y30.282 E0.0071
G1 X19.579 Y30.011 E0.0071
G1 X19.83 Y29.666 E0.0071
G1 X19.987 Y29.269 E0.0071
G1 X20.041 Y28.846 E0.0071
G1 X19.987 Y28.423 E0.0071
G1 X19.83 Y28.026 E0.0071
G1 X19.579 Y27.681 E0.0071
G1 X19.251 Y27.409 E0.0071
G1 X18.865 Y27.227 E0.0071
G1 X18.446 Y27.148 E0.0071
G1 X18.02 Y27.174 E0.0071
G1 X17.614 Y27.306 E0.0071
G1 X17.254 Y27.535 E0.0071
G1 E-1 F1200
G1 X7.758 Y17.33 F4200
G1 E1 F1200
G1 X7.345 Y17.592 E0.0081 F900
G1 X7.01 Y17.949 E0.0081
G1 X6.774 Y18.377 E0.0081
G1 X6.653 Y18.851 E0.0081
G1 X6.653 Y19.34 E0.0081
G1 X6.774 Y19.814 E0.0081
G1 X7.01 Y20.243 E0.0081
G1 X7.345 Y20.599 E0.0081
G1 X7.758 Y20.862 E0.0081
G1 X8.223 Y21.013 E0.0081
G1 X8.712 Y21.043 E0.0081
G1 X9.192 Y20.952 E0.0081
G1 X9.635 Y20.744 E0.0081
G1 X10.012 Y20.432 E0.0081
G1 X10.299 Y20.036 E0.0081
G1 X10.479 Y19.581 E0.0081
G1 X10.541 Y19.096 E0.0081
G1 X10.479 Y18.61 E0.0081
G1 X10.299 Y18.156 E0.0081
G1 X10.012 Y17.76 E0.0081
G1 X9.635 Y17.448 E0.0081
G1 X9.192 Y17.24 E0.0081
G1 X8.712 Y17.148 E0.0081
G1 X8.223 Y17.179 E0.0081
G1 X7.758 Y17.33 E0.0081
G1 E-1 F1200
G1 X5.698 Y-10.054 F4200
G1 E1 F1200
G1 X-63.572 Y-10.054 E1.152 F1575
G1 X-63.349 Y-10.618 E0.0101
G1 X-63.25 Y-11.404 E0.0132
G1 X-63.349 Y-12.19 E0.0132
G1 X-63.641 Y-12.927 E0.0132
G1 X-64.107 Y-13.568 E0.0132
G1 X-64.717 Y-14.073 E0.0132
G1 X-65.434 Y-14.411 E0.0132
G1 X-66.213 Y-14.559 E0.0132
G1 X-67.003 Y-14.509 E0.0132
G1 X-67.757 Y-14.265 E0.0132
G1 X-68.426 Y-13.84 E0.0132
G1 X-68.968 Y-13.262 E0.0132
G1 X-69.35 Y-12.568 E0.0132
G1 X-69.547 Y-11.8 E0.0132
G1 X-69.547 Y-11.008 E0.0132
G1 X-69.35 Y-10.241 E0.0132
G1 X-68.968 Y-9.546 E0.0132
G1 X-68.426 Y-8.969 E0.0132
G1 X-67.757 Y-8.544 E0.0132
G1 X-67.003 Y-8.299 E0.0132
G1 X-66.561 Y-8.271 E0.0074
G1 X-66.561 Y15.963 E0.403
G1 X-67.003 Y15.991 E0.0074
G1 X-67.757 Y16.235 E0.0132
G1 X-68.426 Y16.66 E0.0132
G1 X-68.968 Y17.238 E0.0132
G1 X-69.35 Y17.932 E0.0132
G1 X-69.547 Y18.7 E0.0132
G1 X-69.547 Y19.492 E0.0132
G1 X-69.35 Y20.259 E0.0132
G1 X-68.968 Y20.954 E0.0132
G1 X-68.426 Y21.531 E0.0132
G1 X-67.757 Y21.956 E0.0132
G1 X-67.003 Y22.201 E0.0132
G1 X-66.213 Y22.251 E0.0132
G1 X-65.434 Y22.102 E0.0132
G1 X-64.717 Y21.765 E0.0132
G1 X-64.107 Y21.26 E0.0132
G1 X-63.641 Y20.619 E0.0132
G1 X-63.349 Y19.882 E0.0132
G1 X-63.25 Y19.096 E0.0132
G1 X-63.357 Y18.246 E0.0142
G1 X5.569 Y18.246 E1.1463
G1 X5.453 Y18.7 E0.0078
G1 X5.453 Y19.492 E0.0132
G1 X5.65 Y20.259 E0.0132
G1 X6.032 Y20.954 E0.0132
G1 X6.574 Y21.531 E0.0132
G1 X7.243 Y21.956 E0.0132
G1 X7.997 Y22.201 E0.0132
G1 X8.787 Y22.251 E0.0132
G1 X9.566 Y22.102 E0.0132
G1 X10.283 Y21.765 E0.0132
G1 X10.893 Y21.26 E0.0132
G1 X11.359 Y20.619 E0.0132
G1 X11.651 Y19.882 E0.0132
G1 X11.75 Y19.096 E0.0132
G1 X11.651 Y18.31 E0.0132
G1 X11.359 Y17.573 E0.0132
G1 X10.893 Y16.932 E0.0132
G1 X10.283 Y16.427 E0.0132
G1 X9.566 Y16.089 E0.0132
G1 X8.739 Y15.932 E0.014
G1 X8.739 Y-8.24 E0.402
G1 X9.566 Y-8.398 E0.014
G1 X10.283 Y-8.735 E0.0132
G1 X10.893 Y-9.24 E0.0132
G1 X11.359 Y-9.881 E0.0132
G1 X11.651 Y-10.618 E0.0132
G1 X11.75 Y-11.404 E0.0132
G1 X11.651 Y-12.19 E0.0132
G1 X11.359 Y-12.927 E0.0132
G1 X10.893 Y-13.568 E0.0132
G1 X10.283 Y-14.073 E0.0132
G1 X9.566 Y-14.411 E0.0132
G1 X8.787 Y-14.559 E0.0132
G1 X7.997 Y-14.509 E0.0132
G1 X7.243 Y-14.265 E0.0132
G1 X6.574 Y-13.84 E0.0132
G1 X6.032 Y-13.262 E0.0132
G1 X5.65 Y-12.568 E0.0132
G1 X5.453 Y-11.8 E0.0132
G1 X5.453 Y-11.008 E0.0132
G1 X5.698 Y-10.054 E0.0164
G1 X6.429 Y-9.654 F4200
G1 X-64.3 Y-9.654 E1.1762 F1350
G1 X-63.994 Y-10.076 E0.0087
G1 X-63.74 Y-10.718 E0.0115
G1 X-63.653 Y-11.404 E0.0115
G1 X-63.74 Y-12.09 E0.0115
G1 X-63.994 Y-12.733 E0.0115
G1 X-64.401 Y-13.292 E0.0115
G1 X-64.933 Y-13.733 E0.0115
G1 X-65.559 Y-14.027 E0.0115
G1 X-66.238 Y-14.157 E0.0115
G1 X-66.928 Y-14.113 E0.0115
G1 X-67.585 Y-13.9 E0.0115
G1 X-68.169 Y-13.529 E0.0115
G1 X-68.642 Y-13.025 E0.0115
G1 X-68.975 Y-12.419 E0.0115
G1 X-69.147 Y-11.75 E0.0115
G1 X-69.147 Y-11.059 E0.0115
G1 X-68.975 Y-10.389 E0.0115
G1 X-68.642 Y-9.783 E0.0115
G1 X-68.169 Y-9.279 E0.0115
G1 X-67.585 Y-8.909 E0.0115
G1 X-66.928 Y-8.695 E0.0115
G1 X-66.161 Y-8.647 E0.0128
G1 X-66.161 Y16.338 E0.4155
G1 X-66.928 Y16.387 E0.0128
G1 X-67.585 Y16.6 E0.0115
G1 X-68.169 Y16.971 E0.0115
G1 X-68.642 Y17.475 E0.0115
G1 X-68.975 Y18.081 E0.0115
G1 X-69.147 Y18.75 E0.0115
G1 X-69.147 Y19.441 E0.0115
G1 X-68.975 Y20.111 E0.0115
G1 X-68.642 Y20.717 E0.0115
G1 X-68.169 Y21.221 E0.0115
G1 X-67.585 Y21.591 E0.0115
G1 X-66.928 Y21.805 E0.0115
