; G-Code generated by Simplify3D(R) Version 2.2.2
; mai 31, 2015 at 10:45:24 
; Settings Summary
;   processName,Process1
;   applyToModels,aquaMonitorCaseCover
;   profileLabel,Wanhao Duplicator 4/4X Dual (right extruder)
;   printMaterial,ABS
;   printQuality,High
;   extruderName,Right Extruder,Left Extruder
;   extruderToolheadNumber,0,1
;   extruderDiameter,0.4,0.4
;   extruderAutoWidth,0,0
;   extruderWidth,0.4,0.4
;   extrusionMultiplier,1,1
;   extruderUseRetract,1,1
;   extruderRetractionDistance,1,1
;   extruderExtraRestartDistance,0,0
;   extruderRetractionZLift,0,0
;   extruderRetractionSpeed,1200,1200
;   extruderUseCoasting,0,0
;   extruderCoastingDistance,0.2,0.2
;   extruderUseWipe,0,0
;   extruderWipeDistance,5,5
;   primaryExtruder,0
;   layerHeight,0.1
;   topSolidLayers,4
;   bottomSolidLayers,4
;   perimeterOutlines,4
;   printPerimetersInsideOut,1
;   startPointOption,2
;   startPointOriginX,0
;   startPointOriginY,0
;   startPointOriginZ,300
;   sequentialIslands,0
;   spiralVaseMode,0
;   firstLayerHeightPercentage,90
;   firstLayerWidthPercentage,100
;   firstLayerUnderspeed,0.5
;   useRaft,0
;   raftExtruder,0
;   raftLayers,3
;   raftOffset,3
;   raftSeparationDistance,0.14
;   raftInfill,85
;   disableRaftBaseLayers,0
;   useSkirt,0
;   skirtExtruder,0
;   skirtLayers,2
;   skirtOutlines,2
;   skirtOffset,4
;   infillExtruder,0
;   externalInfillPattern,Rectilinear
;   infillPercentage,30
;   outlineOverlapPercentage,50
;   infillExtrusionWidthPercentage,100
;   minInfillLength,5
;   infillLayerInterval,1
;   randomInfillStartPoint,0
;   infillAngles,45,-45
;   generateSupport,1
;   supportExtruder,0
;   supportInfill,14
;   supportExtraInflation,0.2
;   denseSupportLayers,0
;   denseSupportInfill,60
;   supportLayerInterval,1
;   supportHorizontalPartOffset,0.3
;   supportUpperSeparationLayers,1
;   supportLowerSeparationLayers,1
;   supportGridSpacing,4
;   maxOverhangAngle,45
;   supportAngles,0
;   temperatureName,Right Extruder,Left Extruder,Heated Build Platform
;   temperatureNumber,0,1,0
;   temperatureSetpointCount,1,1,1
;   temperatureSetpointLayers,1,1,1
;   temperatureSetpointTemperatures,230,0,110
;   temperatureStabilizeAtStartup,0,0,0
;   temperatureHeatedBed,0,0,1
;   temperatureRelayBetweenLayers,0,0,0
;   temperatureRelayBetweenLoops,0,0,0
;   fanLayers,1
;   fanSpeeds,0
;   blipFanToFullPower,0
;   adjustSpeedForCooling,1
;   minSpeedLayerTime,15
;   minCoolingSpeedSlowdown,20
;   increaseFanForCooling,0
;   minFanLayerTime,45
;   maxCoolingFanSpeed,100
;   increaseFanForBridging,1
;   bridgingFanSpeed,100
;   use5D,1
;   relativeEdistances,1
;   allowEaxisZeroing,0
;   independentExtruderAxes,1
;   includeM10123,0
;   stickySupport,1
;   detectArcs,0
;   arcReplaceG2G3,0
;   arcRadialCompensation,1
;   gcodeXoffset,0
;   gcodeYoffset,0
;   gcodeZoffset,0
;   overrideMachineDefinition,1
;   machineTypeOverride,0
;   strokeXoverride,220
;   strokeYoverride,140
;   strokeZoverride,150
;   originOffsetXoverride,110
;   originOffsetYoverride,70
;   originOffsetZoverride,0
;   homeXdirOverride,1
;   homeYdirOverride,1
;   homeZdirOverride,-1
;   flipXoverride,1
;   flipYoverride,-1
;   flipZoverride,1
;   startingGcode,; **** Duplicator 4 dual start.gcode ****,M73 P0 ; enable build progress,G162 X Y F3000 ; home XY maximum,G161 Z F1200 ; home Z minimum,G92 Z-5 ; set Z to -5,G1 Z0 ; move Z to 0,G161 Z F100 ; home Z slowly,M132 X Y Z A B ; recall home offsets,M135 T0 ; load right extruder offsets,G1 X-120 Y-70 Z30 F9000 ; move to wait position off table,G130 X20 Y20 Z20 A20 B20 ; lower stepper Vrefs while heating,M126 S[fan_speed_pwm],M140 S[bed0_temperature] T0,M134 T0 ; stabilize bed temperature,M104 S[extruder0_temperature] T0,M133 T0 ; stabilize extruder temperature,G130 X127 Y127 Z40 A127 B127 ; default stepper Vrefs,G92 A0 B0 ; zero extruders,G1 Z0.4 ; position nozzle,G1 E25 F300 ; purge nozzle,G1 X-115 Y-65 Z0.15 F1200 ; slow wipe,G1 X-110 Y-60 Z0.5 F1200 ; lift,G92 A0 B0 ; zero extruders,M73 P1 ;@body (notify GPX body has started),; **** end of start.gcode ****
;   layerChangeGcode,
;   toolChangeGcode,
;   endingGcode,; **** Duplicator 4 dual end.gcode ****,M73 P100 ; end build progress,G1 Z150 F1000 ; send Z axis to bottom of machine,M140 S0 T0 ; cool down HBP,M104 S0 T0 ; cool down right extruder,M104 S0 T1 ; cool down left extruder,M127 ; stop blower fan,G162 X Y F3000 ; home XY maximum,M18 ; disable stepper,M72 P1 ; play Ta-Da song,; **** end of end.gcode ****
;   createX3G,1
;   celebration,0
;   celebrationSong,Random Song
;   createMB5G,0
;   postProcessing,
;   defaultSpeed,3600
;   outlineUnderspeed,0.5
;   solidInfillUnderspeed,0.8
;   supportUnderspeed,0.8
;   rapidXYspeed,4200
;   rapidZspeed,1200
;   minBridgingArea,50
;   bridgingExtrusionMultiplier,1
;   bridgingSpeedMultiplier,0.8
;   filamentDiameter,1.75
;   filamentPricePerKg,46
;   useMinPrintHeight,0
;   minPrintHeight,0
;   useMaxPrintHeight,0
;   maxPrintHeight,0
;   useDiaphragm,0
;   diaphragmLayerInterval,20
;   robustSlicing,1
;   mergeAllIntoSolid,0
;   onlyRetractWhenCrossingOutline,1
;   retractBetweenLayers,1
;   useRetractionMinTravel,0
;   retractionMinTravel,3
;   useRetractionOozeRate,0
;   retractionOozeRate,100
;   onlyWipeOutlines,1
;   toolChangeRetractionDistance,12
;   toolChangeExtraRestartDistance,-0.5
;   toolChangeRetractionSpeed,600
;   allowThinWallGapFill,1
;   thinWallAllowedOverlapPercentage,10
;   horizontalSizeCompensation,0
G90
M83
; **** Duplicator 4 dual start.gcode ****
M73 P0 ; enable build progress
G162 X Y F3000 ; home XY maximum
G161 Z F1200 ; home Z minimum
G92 Z-5 ; set Z to -5
G1 Z0 ; move Z to 0
G161 Z F100 ; home Z slowly
M132 X Y Z A B ; recall home offsets
M135 T0 ; load right extruder offsets
G1 X-120 Y-70 Z30 F9000 ; move to wait position off table
G130 X20 Y20 Z20 A20 B20 ; lower stepper Vrefs while heating
M127
M140 S110 T0
M134 T0 ; stabilize bed temperature
M104 S230 T0
M133 T0 ; stabilize extruder temperature
G130 X127 Y127 Z40 A127 B127 ; default stepper Vrefs
G92 A0 B0 ; zero extruders
G1 Z0.4 ; position nozzle
G1 E25 F300 ; purge nozzle
G1 X-115 Y-65 Z0.15 F1200 ; slow wipe
G1 X-110 Y-60 Z0.5 F1200 ; lift
G92 A0 B0 ; zero extruders
M73 P1 ;@body (notify GPX body has started)
; **** end of start.gcode ****
G1 E-1 F1200
G1 Z0.09 F1200
; layer 1, Z = 0.09
M135 T0
; tool H0.1 W0.4
G1 X15.231 Y-35.569 F4200
G1 E1 F360
G1 X15.925 Y-35.344 E0.0121 F1575
G1 X16.653 Y-35.298 E0.0121
G1 X17.37 Y-35.434 E0.0121
G1 X18.03 Y-35.745 E0.0121
G1 X18.592 Y-36.21 E0.0121
G1 X19.021 Y-36.801 E0.0121
G1 X19.29 Y-37.479 E0.0121
G1 X19.381 Y-38.203 E0.0121
G1 X19.29 Y-38.927 E0.0121
G1 X19.021 Y-39.606 E0.0121
G1 X18.592 Y-40.196 E0.0121
G1 X18.03 Y-40.661 E0.0121
G1 X17.37 Y-40.972 E0.0121
G1 X16.706 Y-41.098 E0.0112
G1 X16.733 Y-41.388 E0.0048
G1 X20.032 Y-41.388 E0.0549
G1 X20.032 Y35.312 E1.2755
G1 X-81.668 Y35.312 E1.6913
G1 X-81.668 Y32.313 E0.0499
G1 X-81.388 Y32.278 E0.0047
G1 X-81.236 Y32.869 E0.0101
G1 X-80.885 Y33.508 E0.0121
G1 X-80.385 Y34.04 E0.0121
G1 X-79.769 Y34.431 E0.0121
G1 X-79.075 Y34.656 E0.0121
G1 X-78.347 Y34.702 E0.0121
G1 X-77.63 Y34.566 E0.0121
G1 X-76.97 Y34.255 E0.0121
G1 X-76.407 Y33.79 E0.0121
G1 X-75.979 Y33.199 E0.0121
G1 X-75.71 Y32.521 E0.0121
G1 X-75.618 Y31.797 E0.0121
G1 X-75.71 Y31.073 E0.0121
G1 X-75.979 Y30.394 E0.0121
G1 X-76.407 Y29.804 E0.0121
G1 X-76.97 Y29.339 E0.0121
G1 X-77.63 Y29.028 E0.0121
G1 X-78.347 Y28.891 E0.0121
G1 X-79.075 Y28.937 E0.0121
G1 X-79.769 Y29.163 E0.0121
G1 X-80.385 Y29.554 E0.0121
G1 X-80.885 Y30.086 E0.0121
G1 X-81.236 Y30.725 E0.0121
G1 X-81.388 Y31.316 E0.0101
G1 X-81.668 Y31.281 E0.0047
G1 X-81.668 Y-37.687 E1.1469
G1 X-81.388 Y-37.722 E0.0047
G1 X-81.236 Y-37.131 E0.0101
G1 X-80.885 Y-36.492 E0.0121
G1 X-80.385 Y-35.96 E0.0121
G1 X-79.769 Y-35.569 E0.0121
G1 X-79.075 Y-35.344 E0.0121
G1 X-78.347 Y-35.298 E0.0121
G1 X-77.63 Y-35.434 E0.0121
G1 X-76.97 Y-35.745 E0.0121
G1 X-76.407 Y-36.21 E0.0121
G1 X-75.979 Y-36.801 E0.0121
G1 X-75.71 Y-37.479 E0.0121
G1 X-75.618 Y-38.203 E0.0121
G1 X-75.71 Y-38.927 E0.0121
G1 X-75.979 Y-39.606 E0.0121
G1 X-76.407 Y-40.196 E0.0121
G1 X-76.97 Y-40.661 E0.0121
G1 X-77.63 Y-40.972 E0.0121
G1 X-78.294 Y-41.098 E0.0112
G1 X-78.267 Y-41.388 E0.0048
G1 X16.165 Y-41.388 E1.5704
G1 X16.175 Y-41.078 E0.0052
G1 X15.925 Y-41.063 E0.0042
G1 X15.231 Y-40.837 E0.0121
G1 X14.615 Y-40.446 E0.0121
G1 X14.115 Y-39.914 E0.0121
G1 X13.764 Y-39.275 E0.0121
G1 X13.582 Y-38.568 E0.0121
G1 X13.582 Y-37.838 E0.0121
G1 X13.764 Y-37.131 E0.0121
G1 X14.115 Y-36.492 E0.0121
G1 X14.615 Y-35.96 E0.0121
G1 X15.231 Y-35.569 E0.0121
G1 X20.432 Y35.712 F4200
G1 X-82.068 Y35.712 E1.7046 F1350
G1 X-82.068 Y-41.788 E1.2888
G1 X20.432 Y-41.788 E1.7046
G1 X20.432 Y35.712 E1.2888
G1 X20.832 Y36.112 F4200
G1 X-82.468 Y36.112 E1.7179 F1125
G1 X-82.468 Y-42.188 E1.3021
G1 X20.832 Y-42.188 E1.7179
G1 X20.832 Y36.112 E1.3021
G1 X21.232 Y36.512 F4200
G1 X-82.868 Y36.512 E1.7312 F900
G1 X-82.868 Y-42.588 E1.3154
G1 X21.232 Y-42.588 E1.7312
G1 X21.232 Y36.512 E1.3154
G1 E-1 F1200
G1 X15.231 Y29.163 F4200
G1 E1 F1200
G1 X14.615 Y29.554 E0.0121 F1575
G1 X14.115 Y30.086 E0.0121
G1 X13.764 Y30.725 E0.0121
G1 X13.582 Y31.432 E0.0121
G1 X13.582 Y32.162 E0.0121
G1 X13.764 Y32.869 E0.0121
G1 X14.115 Y33.508 E0.0121
G1 X14.615 Y34.04 E0.0121
G1 X15.231 Y34.431 E0.0121
G1 X15.925 Y34.656 E0.0121
G1 X16.653 Y34.702 E0.0121
G1 X17.37 Y34.566 E0.0121
G1 X18.03 Y34.255 E0.0121
G1 X18.592 Y33.79 E0.0121
G1 X19.021 Y33.199 E0.0121
G1 X19.29 Y32.521 E0.0121
G1 X19.381 Y31.797 E0.0121
G1 X19.29 Y31.073 E0.0121
G1 X19.021 Y30.394 E0.0121
G1 X18.592 Y29.804 E0.0121
G1 X18.03 Y29.339 E0.0121
G1 X17.37 Y29.028 E0.0121
G1 X16.653 Y28.891 E0.0121
G1 X15.925 Y28.937 E0.0121
G1 X15.231 Y29.163 E0.0121
G1 X15.403 Y29.528 F4200
G1 X14.872 Y29.864 E0.0105 F1350
G1 X14.441 Y30.323 E0.0105
G1 X14.139 Y30.874 E0.0105
G1 X13.982 Y31.483 E0.0105
G1 X13.982 Y32.111 E0.0105
G1 X14.139 Y32.72 E0.0105
G1 X14.441 Y33.271 E0.0105
G1 X14.872 Y33.729 E0.0105
G1 X15.403 Y34.066 E0.0105
G1 X16 Y34.26 E0.0105
G1 X16.628 Y34.3 E0.0105
G1 X17.245 Y34.182 E0.0105
G1 X17.814 Y33.914 E0.0105
G1 X18.299 Y33.514 E0.0105
G1 X18.668 Y33.005 E0.0105
G1 X18.9 Y32.421 E0.0105
G1 X18.978 Y31.797 E0.0105
G1 X18.9 Y31.173 E0.0105
G1 X18.668 Y30.589 E0.0105
G1 X18.299 Y30.08 E0.0105
G1 X17.814 Y29.679 E0.0105
G1 X17.245 Y29.412 E0.0105
G1 X16.628 Y29.294 E0.0105
G1 X16 Y29.333 E0.0105
G1 X15.403 Y29.528 E0.0105
G1 X15.574 Y29.892 F4200
G1 X15.129 Y30.175 E0.0088 F1125
G1 X14.768 Y30.56 E0.0088
G1 X14.513 Y31.022 E0.0088
G1 X14.382 Y31.533 E0.0088
G1 X14.382 Y32.061 E0.0088
G1 X14.513 Y32.572 E0.0088
G1 X14.768 Y33.034 E0.0088
G1 X15.129 Y33.419 E0.0088
G1 X15.574 Y33.701 E0.0088
G1 X16.076 Y33.864 E0.0088
G1 X16.602 Y33.897 E0.0088
G1 X17.121 Y33.799 E0.0088
G1 X17.598 Y33.574 E0.0088
G1 X18.005 Y33.238 E0.0088
G1 X18.315 Y32.811 E0.0088
G1 X18.509 Y32.32 E0.0088
G1 X18.575 Y31.797 E0.0088
G1 X18.509 Y31.273 E0.0088
G1 X18.315 Y30.783 E0.0088
G1 X18.005 Y30.356 E0.0088
G1 X17.598 Y30.02 E0.0088
G1 X17.121 Y29.795 E0.0088
G1 X16.602 Y29.696 E0.0088
G1 X16.076 Y29.729 E0.0088
G1 X15.574 Y29.892 E0.0088
G1 X15.746 Y30.257 F4200
G1 X15.386 Y30.486 E0.0071 F900
G1 X15.094 Y30.797 E0.0071
G1 X14.888 Y31.17 E0.0071
G1 X14.782 Y31.584 E0.0071
G1 X14.782 Y32.01 E0.0071
G1 X14.888 Y32.423 E0.0071
G1 X15.094 Y32.797 E0.0071
G1 X15.386 Y33.108 E0.0071
G1 X15.746 Y33.337 E0.0071
G1 X16.152 Y33.468 E0.0071
G1 X16.577 Y33.495 E0.0071
G1 X16.996 Y33.415 E0.0071
G1 X17.382 Y33.234 E0.0071
G1 X17.711 Y32.962 E0.0071
G1 X17.961 Y32.617 E0.0071
G1 X18.119 Y32.22 E0.0071
G1 X18.172 Y31.797 E0.0071
G1 X18.119 Y31.374 E0.0071
G1 X17.961 Y30.977 E0.0071
G1 X17.711 Y30.632 E0.0071
G1 X17.382 Y30.36 E0.0071
G1 X16.996 Y30.179 E0.0071
G1 X16.577 Y30.099 E0.0071
G1 X16.152 Y30.125 E0.0071
G1 X15.746 Y30.257 E0.0071
G1 E-1 F1200
G1 X6.383 Y20.277 F4200
G1 E1 F1200
G1 X5.953 Y20.417 E0.0075 F900
G1 X5.572 Y20.659 E0.0075
G1 X5.263 Y20.988 E0.0075
G1 X5.045 Y21.384 E0.0075
G1 X4.933 Y21.821 E0.0075
G1 X4.933 Y22.273 E0.0075
G1 X5.045 Y22.71 E0.0075
G1 X5.263 Y23.106 E0.0075
G1 X5.572 Y23.435 E0.0075
G1 X5.953 Y23.677 E0.0075
G1 X6.383 Y23.817 E0.0075
G1 X6.833 Y23.845 E0.0075
G1 X7.277 Y23.76 E0.0075
G1 X7.686 Y23.568 E0.0075
G1 X8.034 Y23.28 E0.0075
G1 X8.299 Y22.915 E0.0075
G1 X8.465 Y22.495 E0.0075
G1 X8.522 Y22.047 E0.0075
G1 X8.465 Y21.599 E0.0075
G1 X8.299 Y21.179 E0.0075
G1 X8.034 Y20.814 E0.0075
G1 X7.686 Y20.526 E0.0075
G1 X7.277 Y20.333 E0.0075
G1 X6.833 Y20.249 E0.0075
G1 X6.383 Y20.277 E0.0075
G1 E-1 F1200
G1 X3.854 Y-7.103 F4200
G1 E1 F1200
G1 X-65.376 Y-7.103 E1.1513 F1575
G1 X-65.268 Y-7.953 E0.0142
G1 X-65.363 Y-8.702 E0.0126
G1 X-65.641 Y-9.404 E0.0126
G1 X-66.085 Y-10.014 E0.0126
G1 X-66.666 Y-10.496 E0.0126
G1 X-67.349 Y-10.817 E0.0126
G1 X-68.091 Y-10.958 E0.0126
G1 X-68.844 Y-10.911 E0.0126
G1 X-69.562 Y-10.678 E0.0126
G1 X-70.199 Y-10.273 E0.0126
G1 X-70.716 Y-9.723 E0.0126
G1 X-71.079 Y-9.062 E0.0126
G1 X-71.267 Y-8.331 E0.0126
G1 X-71.267 Y-7.576 E0.0126
G1 X-71.079 Y-6.845 E0.0126
G1 X-70.716 Y-6.183 E0.0126
G1 X-70.199 Y-5.633 E0.0126
G1 X-69.562 Y-5.229 E0.0126
G1 X-68.844 Y-4.995 E0.0126
G1 X-68.43 Y-4.969 E0.0069
G1 X-68.43 Y19.063 E0.3997
G1 X-68.844 Y19.089 E0.0069
G1 X-69.562 Y19.322 E0.0126
G1 X-70.199 Y19.727 E0.0126
G1 X-70.716 Y20.277 E0.0126
G1 X-71.079 Y20.938 E0.0126
G1 X-71.267 Y21.669 E0.0126
G1 X-71.267 Y22.424 E0.0126
G1 X-71.079 Y23.155 E0.0126
G1 X-70.716 Y23.817 E0.0126
G1 X-70.199 Y24.367 E0.0126
G1 X-69.562 Y24.771 E0.0126
G1 X-68.844 Y25.005 E0.0126
G1 X-68.091 Y25.052 E0.0126
G1 X-67.349 Y24.911 E0.0126
G1 X-66.666 Y24.589 E0.0126
G1 X-66.085 Y24.108 E0.0126
G1 X-65.641 Y23.497 E0.0126
G1 X-65.363 Y22.796 E0.0126
G1 X-65.268 Y22.047 E0.0126
G1 X-65.376 Y21.197 E0.0142
G1 X3.854 Y21.197 E1.1513
G1 X3.733 Y21.669 E0.0081
G1 X3.733 Y22.424 E0.0126
G1 X3.921 Y23.155 E0.0126
G1 X4.284 Y23.817 E0.0126
G1 X4.801 Y24.367 E0.0126
G1 X5.438 Y24.771 E0.0126
G1 X6.156 Y25.005 E0.0126
G1 X6.909 Y25.052 E0.0126
G1 X7.651 Y24.911 E0.0126
G1 X8.334 Y24.589 E0.0126
G1 X8.915 Y24.108 E0.0126
G1 X9.359 Y23.497 E0.0126
G1 X9.637 Y22.796 E0.0126
G1 X9.732 Y22.047 E0.0126
G1 X9.637 Y21.298 E0.0126
G1 X9.359 Y20.596 E0.0126
G1 X8.915 Y19.986 E0.0126
G1 X8.334 Y19.504 E0.0126
G1 X7.651 Y19.183 E0.0126
G1 X6.87 Y19.034 E0.0132
G1 X6.87 Y-4.94 E0.3987
G1 X7.651 Y-5.089 E0.0132
G1 X8.334 Y-5.411 E0.0126
G1 X8.915 Y-5.892 E0.0126
G1 X9.359 Y-6.503 E0.0126
G1 X9.637 Y-7.204 E0.0126
G1 X9.732 Y-7.953 E0.0126
G1 X9.637 Y-8.702 E0.0126
G1 X9.359 Y-9.404 E0.0126
G1 X8.915 Y-10.014 E0.0126
G1 X8.334 Y-10.496 E0.0126
G1 X7.651 Y-10.817 E0.0126
G1 X6.909 Y-10.958 E0.0126
G1 X6.156 Y-10.911 E0.0126
G1 X5.438 Y-10.678 E0.0126
G1 X4.801 Y-10.273 E0.0126
G1 X4.284 Y-9.723 E0.0126
G1 X3.921 Y-9.062 E0.0126
G1 X3.733 Y-8.331 E0.0126
G1 X3.733 Y-7.576 E0.0126
G1 X3.854 Y-7.103 E0.0081
G1 X4.455 Y-6.703 F4200
G1 X-65.992 Y-6.703 E1.1715 F1350
G1 X-65.754 Y-7.305 E0.0108
G1 X-65.672 Y-7.953 E0.0109
G1 X-65.754 Y-8.602 E0.0109
G1 X-65.994 Y-9.209 E0.0109
G1 X-66.379 Y-9.738 E0.0109
G1 X-66.882 Y-10.155 E0.0109
G1 X-67.474 Y-10.433 E0.0109
G1 X-68.116 Y-10.556 E0.0109
G1 X-68.768 Y-10.515 E0.0109
G1 X-69.39 Y-10.313 E0.0109
G1 X-69.942 Y-9.963 E0.0109
G1 X-70.39 Y-9.486 E0.0109
G1 X-70.704 Y-8.913 E0.0109
G1 X-70.867 Y-8.28 E0.0109
G1 X-70.867 Y-7.626 E0.0109
G1 X-70.704 Y-6.993 E0.0109
G1 X-70.389 Y-6.42 E0.0109
G1 X-69.942 Y-5.944 E0.0109
G1 X-69.39 Y-5.593 E0.0109
G1 X-68.768 Y-5.391 E0.0109
G1 X-68.03 Y-5.345 E0.0123
G1 X-68.03 Y19.439 E0.4122
G1 X-68.768 Y19.485 E0.0123
G1 X-69.39 Y19.687 E0.0109
G1 X-69.942 Y20.037 E0.0109
G1 X-70.389 Y20.514 E0.0109
G1 X-70.704 Y21.087 E0.0109
G1 X-70.867 Y21.72 E0.0109
G1 X-70.867 Y22.374 E0.0109
G1 X-70.704 Y23.007 E0.0109
G1 X-70.389 Y23.58 E0.0109
G1 X-69.942 Y24.056 E0.0109
G1 X-69.39 Y24.407 E0.0109
G1 X-68.768 Y24.609 E0.0109
G1 X-68.116 Y24.65 E0.0109
G1 X-67.474 Y24.527 E0.0109
G1 X-66.882 Y24.249 E0.0109
