; G-Code generated by Simplify3D(R) Version 3.1.0
; juil. 3, 2016 at 11:04:57 
; Settings Summary
;   processName,Left extruder
;   applyToModels,aquaMonitorCaseCover
;   profileName,Wanhao Duplicator 4/4X Dual (modified)
;   profileVersion,2015-05-01 08:00:00
;   baseProfile,
;   printMaterial,ABS
;   printQuality,Medium
;   printExtruders,Left Extruder Only
;   extruderName,Right Extruder,Left Extruder
;   extruderToolheadNumber,0,1
;   extruderDiameter,0.4,0.4
;   extruderAutoWidth,0,0
;   extruderWidth,0.4,0.4
;   extrusionMultiplier,1,1
;   extruderUseRetract,1,1
;   extruderRetractionDistance,1,1
;   extruderExtraRestartDistance,0,0
;   extruderRetractionZLift,0,0
;   extruderRetractionSpeed,1200,1200
;   extruderUseCoasting,0,0
;   extruderCoastingDistance,0.2,0.2
;   extruderUseWipe,0,0
;   extruderWipeDistance,5,5
;   primaryExtruder,1
;   layerHeight,0.2
;   topSolidLayers,3
;   bottomSolidLayers,3
;   perimeterOutlines,2
;   printPerimetersInsideOut,1
;   startPointOption,2
;   startPointOriginX,0
;   startPointOriginY,0
;   startPointOriginZ,300
;   sequentialIslands,0
;   spiralVaseMode,0
;   firstLayerHeightPercentage,90
;   firstLayerWidthPercentage,100
;   firstLayerUnderspeed,0.5
;   useRaft,0
;   raftExtruder,1
;   raftLayers,3
;   raftOffset,3
;   raftSeparationDistance,0.14
;   raftInfill,85
;   disableRaftBaseLayers,0
;   useSkirt,1
;   skirtExtruder,1
;   skirtLayers,2
;   skirtOutlines,2
;   skirtOffset,4
;   usePrimePillar,0
;   primePillarExtruder,999
;   primePillarWidth,12
;   primePillarLocation,7
;   primePillarSpeedMultiplier,1
;   useOozeShield,0
;   oozeShieldExtruder,999
;   oozeShieldOffset,2
;   oozeShieldOutlines,1
;   oozeShieldSidewallShape,1
;   oozeShieldSidewallAngle,30
;   oozeShieldSpeedMultiplier,1
;   infillExtruder,1
;   internalInfillPattern,Rectilinear
;   externalInfillPattern,Rectilinear
;   infillPercentage,50
;   outlineOverlapPercentage,50
;   infillExtrusionWidthPercentage,100
;   minInfillLength,5
;   infillLayerInterval,1
;   infillAngles,45,-45
;   overlapInfillAngles,0
;   generateSupport,0
;   supportExtruder,1
;   supportInfillPercentage,30
;   supportExtraInflation,0
;   denseSupportLayers,0
;   denseSupportInfillPercentage,70
;   supportLayerInterval,1
;   supportHorizontalPartOffset,0.3
;   supportUpperSeparationLayers,1
;   supportLowerSeparationLayers,1
;   supportType,0
;   supportGridSpacing,4
;   maxOverhangAngle,45
;   supportAngles,0
;   temperatureName,Right Extruder,Left Extruder,Heated Build Platform
;   temperatureNumber,0,1,0
;   temperatureSetpointCount,1,1,1
;   temperatureSetpointLayers,1,1,1
;   temperatureSetpointTemperatures,0,230,110
;   temperatureStabilizeAtStartup,0,0,0
;   temperatureHeatedBed,0,0,1
;   temperatureRelayBetweenLayers,0,0,0
;   temperatureRelayBetweenLoops,0,0,0
;   fanLayers,1
;   fanSpeeds,0
;   blipFanToFullPower,0
;   adjustSpeedForCooling,1
;   minSpeedLayerTime,15
;   minCoolingSpeedSlowdown,20
;   increaseFanForCooling,0
;   minFanLayerTime,45
;   maxCoolingFanSpeed,100
;   increaseFanForBridging,1
;   bridgingFanSpeed,100
;   use5D,1
;   relativeEdistances,1
;   allowEaxisZeroing,0
;   independentExtruderAxes,1
;   includeM10123,0
;   stickySupport,1
;   applyToolheadOffsets,0
;   gcodeXoffset,0
;   gcodeYoffset,0
;   gcodeZoffset,0
;   overrideMachineDefinition,1
;   machineTypeOverride,0
;   strokeXoverride,220
;   strokeYoverride,140
;   strokeZoverride,150
;   originOffsetXoverride,110
;   originOffsetYoverride,70
;   originOffsetZoverride,0
;   homeXdirOverride,1
;   homeYdirOverride,1
;   homeZdirOverride,-1
;   flipXoverride,1
;   flipYoverride,-1
;   flipZoverride,1
;   toolheadOffsets,0,0|34,0|0,0|0,0|0,0|0,0
;   overrideFirmwareConfiguration,1
;   firmwareTypeOverride,MakerBot/Sailfish Firmware
;   GPXconfigOverride,r1d
;   baudRateOverride,115200
;   overridePrinterModels,0
;   printerModelsOverride
;   startingGcode,; **** Duplicator 4 dual start.gcode ****,M73 P0 ; enable build progress,G162 X Y F3000 ; home XY maximum,G161 Z F1200 ; home Z minimum,G92 Z-5 ; set Z to -5,G1 Z0 ; move Z to 0,G161 Z F100 ; home Z slowly,M132 X Y Z A B ; recall home offsets,M135 T0 ; load right extruder offsets,G1 X-120 Y-70 Z30 F9000 ; move to wait position off table,G130 X20 Y20 Z20 A20 B20 ; lower stepper Vrefs while heating,M126 S[fan_speed_pwm],M140 S[bed0_temperature] T0,M134 T0 ; stabilize bed temperature,M104 S[extruder1_temperature] T1,M133 T1 ; stabilize extruder temperature,G130 X127 Y127 Z40 A127 B127 ; default stepper Vrefs,G92 A0 B0 ; zero extruders,M135 T1 ; load left extruder offsets,G1 Z0.4 ; position nozzle,G1 E25 F300 ; purge nozzle,G1 X-115 Y-65 Z0.15 F1200 ; slow wipe,G1 X-110 Y-60 Z0.5 F1200 ; lift,G92 A0 B0 ; zero extruders,M73 P1 ;@body (notify GPX body has started),; **** end of start.gcode ****
;   layerChangeGcode,
;   retractionGcode,
;   toolChangeGcode,
;   endingGcode,; **** Duplicator 4 dual end.gcode ****,M73 P100 ; end build progress,G1 Z150 F1000 ; send Z axis to bottom of machine,M140 S0 T0 ; cool down HBP,M104 S0 T0 ; cool down right extruder,M104 S0 T1 ; cool down left extruder,M127 ; stop blower fan,G162 X Y F3000 ; home XY maximum,M18 ; disable stepper,M72 P1 ; play Ta-Da song,; **** end of end.gcode ****
;   exportFileFormat,x3g
;   celebration,0
;   celebrationSong,Random Song
;   postProcessing,
;   defaultSpeed,3600
;   outlineUnderspeed,0.5
;   solidInfillUnderspeed,0.8
;   supportUnderspeed,0.8
;   rapidXYspeed,4200
;   rapidZspeed,1200
;   minBridgingArea,50
;   bridgingExtraInflation,0
;   bridgingExtrusionMultiplier,1
;   bridgingSpeedMultiplier,0.8
;   filamentDiameter,1.75
;   filamentPricePerKg,46
;   filamentDensity,1.25
;   useMinPrintHeight,0
;   minPrintHeight,0
;   useMaxPrintHeight,0
;   maxPrintHeight,0
;   useDiaphragm,0
;   diaphragmLayerInterval,20
;   robustSlicing,1
;   mergeAllIntoSolid,0
;   onlyRetractWhenCrossingOutline,1
;   retractBetweenLayers,1
;   useRetractionMinTravel,0
;   retractionMinTravel,3
;   retractWhileWiping,0
;   onlyWipeOutlines,1
;   avoidCrossingOutline,1
;   maxMovementDetourFactor,3
;   toolChangeRetractionDistance,12
;   toolChangeExtraRestartDistance,-0.5
;   toolChangeRetractionSpeed,600
;   allowThinWallGapFill,1
;   thinWallAllowedOverlapPercentage,10
;   horizontalSizeCompensation,0
G90
M83
; **** Duplicator 4 dual start.gcode ****
M73 P0 ; enable build progress
G162 X Y F3000 ; home XY maximum
G161 Z F1200 ; home Z minimum
G92 Z-5 ; set Z to -5
G1 Z0 ; move Z to 0
G161 Z F100 ; home Z slowly
M132 X Y Z A B ; recall home offsets
M135 T0 ; load right extruder offsets
G1 X-120 Y-70 Z30 F9000 ; move to wait position off table
G130 X20 Y20 Z20 A20 B20 ; lower stepper Vrefs while heating
M127
M140 S110 T0
M134 T0 ; stabilize bed temperature
M104 S230 T1
M133 T1 ; stabilize extruder temperature
G130 X127 Y127 Z40 A127 B127 ; default stepper Vrefs
G92 A0 B0 ; zero extruders
M135 T1 ; load left extruder offsets
G1 Z0.4 ; position nozzle
G1 E25 F300 ; purge nozzle
G1 X-115 Y-65 Z0.15 F1200 ; slow wipe
G1 X-110 Y-60 Z0.5 F1200 ; lift
G92 A0 B0 ; zero extruders
M73 P1 ;@body (notify GPX body has started)
; **** end of start.gcode ****
G1 E-1.0000 F1200
G1 Z0.180 F1200
; layer 1, Z = 0.18
M135 T1
; tool H0.200 W0.400
; skirt
G1 X53.612 Y35.693 F4200
G1 E1.0000 F360
G1 X-54.441 Y35.693 E3.5938 F1800
G1 X-54.661 Y35.602 E0.0079
G1 X-57.173 Y33.090 E0.1182
G1 X-57.264 Y32.869 E0.0079
G1 X-57.264 Y-50.183 E2.7623
G1 X-57.173 Y-50.403 E0.0079
G1 X-54.661 Y-52.915 E0.1182
G1 X-54.441 Y-53.007 E0.0079
G1 X53.612 Y-53.007 E3.5938
G1 X53.832 Y-52.915 E0.0079
G1 X56.344 Y-50.403 E0.1182
G1 X56.436 Y-50.183 E0.0079
G1 X56.436 Y32.869 E2.7623
G1 X56.344 Y33.090 E0.0079
G1 X53.832 Y35.602 E0.1182
G1 X53.612 Y35.693 E0.0079
G1 X53.532 Y35.293 F4200
G1 X-54.361 Y35.293 E3.5885 F1800
G1 X-54.434 Y35.263 E0.0026
G1 X-56.834 Y32.863 E0.1129
G1 X-56.864 Y32.790 E0.0026
G1 X-56.864 Y-50.103 E2.7570
G1 X-56.834 Y-50.177 E0.0026
G1 X-54.434 Y-52.576 E0.1129
G1 X-54.361 Y-52.607 E0.0026
G1 X53.532 Y-52.607 E3.5885
G1 X53.606 Y-52.576 E0.0026
G1 X56.005 Y-50.177 E0.1129
G1 X56.036 Y-50.103 E0.0026
G1 X56.036 Y32.790 E2.7570
G1 X56.005 Y32.863 E0.0026
G1 X53.606 Y35.263 E0.1129
G1 X53.532 Y35.293 E0.0026
; inner perimeter
G1 X51.236 Y30.493 F4200
G1 X-52.064 Y30.493 E3.4358 F1350
G1 X-52.064 Y-47.807 E2.6043
G1 X51.236 Y-47.807 E3.4358
G1 X51.236 Y30.493 E2.6043
; outer perimeter
G1 X51.636 Y30.893 F4200
G1 X-52.464 Y30.893 E3.4624 F900
G1 X-52.464 Y-48.207 E2.6309
G1 X51.636 Y-48.207 E3.4624
G1 X51.636 Y30.893 E2.6309
; inner perimeter
G1 X48.002 Y27.956 F4200
G1 X48.408 Y27.619 E0.0175 F1350
G1 X48.718 Y27.193 E0.0175
G1 X48.913 Y26.702 E0.0175
G1 X48.979 Y26.179 E0.0175
G1 X48.913 Y25.655 E0.0175
G1 X48.718 Y25.165 E0.0175
G1 X48.408 Y24.738 E0.0175
G1 X48.002 Y24.401 E0.0175
G1 X47.524 Y24.177 E0.0175
G1 X47.006 Y24.078 E0.0175
G1 X46.480 Y24.111 E0.0175
G1 X45.978 Y24.274 E0.0175
G1 X45.532 Y24.557 E0.0175
G1 X45.171 Y24.941 E0.0175
G1 X44.917 Y25.404 E0.0175
G1 X44.786 Y25.915 E0.0175
G1 X44.786 Y26.442 E0.0175
G1 X44.917 Y26.953 E0.0175
G1 X45.171 Y27.416 E0.0175
G1 X45.532 Y27.800 E0.0175
G1 X45.978 Y28.083 E0.0175
G1 X46.480 Y28.246 E0.0175
G1 X47.006 Y28.279 E0.0175
G1 X47.524 Y28.180 E0.0175
G1 X48.002 Y27.956 E0.0175
; outer perimeter
G1 X47.786 Y27.615 F4200
G1 X48.114 Y27.343 E0.0142 F900
G1 X48.365 Y26.998 E0.0142
G1 X48.522 Y26.602 E0.0142
G1 X48.576 Y26.179 E0.0142
G1 X48.522 Y25.755 E0.0142
G1 X48.365 Y25.359 E0.0142
G1 X48.114 Y25.014 E0.0142
G1 X47.786 Y24.742 E0.0142
G1 X47.400 Y24.560 E0.0142
G1 X46.981 Y24.480 E0.0142
G1 X46.555 Y24.507 E0.0142
G1 X46.149 Y24.639 E0.0142
G1 X45.789 Y24.867 E0.0142
G1 X45.497 Y25.178 E0.0142
G1 X45.292 Y25.552 E0.0142
G1 X45.186 Y25.965 E0.0142
G1 X45.186 Y26.392 E0.0142
G1 X45.292 Y26.805 E0.0142
G1 X45.497 Y27.179 E0.0142
G1 X45.789 Y27.490 E0.0142
G1 X46.149 Y27.718 E0.0142
G1 X46.555 Y27.850 E0.0142
G1 X46.981 Y27.877 E0.0142
G1 X47.400 Y27.797 E0.0142
G1 X47.786 Y27.615 E0.0142
; inner perimeter
; outer perimeter
G1 X47.783 Y27.612 F4200
G1 X47.398 Y27.793 F4200
G1 X46.981 Y27.873 F4200
G1 X46.556 Y27.846 F4200
G1 X46.151 Y27.715 F4200
G1 X45.792 Y27.487 F4200
G1 X45.501 Y27.176 F4200
G1 X45.296 Y26.803 F4200
G1 X45.190 Y26.391 F4200
G1 X45.190 Y25.966 F4200
G1 X45.296 Y25.554 F4200
G1 X45.501 Y25.181 F4200
G1 X45.501 Y25.180 F4200
G1 X38.547 Y17.764 F4200
G1 X38.834 Y17.369 E0.0163 F900
G1 X39.014 Y16.914 E0.0163
G1 X39.076 Y16.429 E0.0163
G1 X39.014 Y15.943 E0.0163
G1 X38.834 Y15.488 E0.0163
G1 X38.547 Y15.093 E0.0163
G1 X38.170 Y14.781 E0.0163
G1 X37.727 Y14.572 E0.0163
G1 X37.246 Y14.481 E0.0163
G1 X36.758 Y14.511 E0.0163
G1 X36.293 Y14.663 E0.0163
G1 X35.880 Y14.925 E0.0163
G1 X35.545 Y15.281 E0.0163
G1 X35.309 Y15.710 E0.0163
G1 X35.188 Y16.184 E0.0163
G1 X35.188 Y16.673 E0.0163
G1 X35.309 Y17.147 E0.0163
G1 X35.545 Y17.576 E0.0163
G1 X35.880 Y17.932 E0.0163
G1 X36.293 Y18.194 E0.0163
G1 X36.758 Y18.346 E0.0163
G1 X37.246 Y18.376 E0.0163
G1 X37.727 Y18.285 E0.0163
G1 X38.170 Y18.076 E0.0163
G1 X38.547 Y17.764 E0.0163
; inner perimeter
G1 X38.840 Y18.040 F4200
G1 X39.187 Y17.563 E0.0196 F1350
G1 X39.405 Y17.014 E0.0196
G1 X39.479 Y16.429 E0.0196
G1 X39.405 Y15.843 E0.0196
G1 X39.187 Y15.294 E0.0196
G1 X38.840 Y14.817 E0.0196
G1 X38.386 Y14.440 E0.0196
G1 X37.852 Y14.189 E0.0196
G1 X37.272 Y14.078 E0.0196
G1 X36.683 Y14.115 E0.0196
G1 X36.474 Y14.183 E0.0073
G1 X36.474 Y-11.826 E0.8651
G1 X36.683 Y-11.758 E0.0073
G1 X37.272 Y-11.721 E0.0196
G1 X37.852 Y-11.832 E0.0196
G1 X38.386 Y-12.083 E0.0196
G1 X38.840 Y-12.460 E0.0196
G1 X39.187 Y-12.937 E0.0196
G1 X39.405 Y-13.486 E0.0196
G1 X39.479 Y-14.071 E0.0196
G1 X39.405 Y-14.657 E0.0196
G1 X39.187 Y-15.206 E0.0196
G1 X38.840 Y-15.683 E0.0196
G1 X38.386 Y-16.060 E0.0196
G1 X37.852 Y-16.311 E0.0196
G1 X37.272 Y-16.422 E0.0196
G1 X36.683 Y-16.385 E0.0196
G1 X36.121 Y-16.202 E0.0196
G1 X35.623 Y-15.886 E0.0196
G1 X35.219 Y-15.456 E0.0196
G1 X34.934 Y-14.938 E0.0196
G1 X34.788 Y-14.367 E0.0196
G1 X34.788 Y-13.776 E0.0196
G1 X34.934 Y-13.205 E0.0196
G1 X35.219 Y-12.687 E0.0196
G1 X35.623 Y-12.257 E0.0196
G1 X36.152 Y-11.921 E0.0208
G1 X-36.810 Y-11.921 E2.4267
G1 X-36.160 Y-12.460 E0.0281
G1 X-35.813 Y-12.937 E0.0196
G1 X-35.595 Y-13.486 E0.0196
G1 X-35.521 Y-14.071 E0.0196
G1 X-35.595 Y-14.657 E0.0196
G1 X-35.813 Y-15.206 E0.0196
G1 X-36.160 Y-15.683 E0.0196
G1 X-36.614 Y-16.060 E0.0196
G1 X-37.148 Y-16.311 E0.0196
G1 X-37.728 Y-16.422 E0.0196
G1 X-38.317 Y-16.385 E0.0196
G1 X-38.879 Y-16.202 E0.0196
G1 X-39.377 Y-15.886 E0.0196
G1 X-39.781 Y-15.456 E0.0196
G1 X-40.065 Y-14.938 E0.0196
G1 X-40.212 Y-14.367 E0.0196
G1 X-40.212 Y-13.776 E0.0196
G1 X-40.065 Y-13.205 E0.0196
G1 X-39.781 Y-12.687 E0.0196
G1 X-39.377 Y-12.257 E0.0196
G1 X-38.879 Y-11.941 E0.0196
G1 X-38.317 Y-11.758 E0.0196
G1 X-37.728 Y-11.721 E0.0196
G1 X-37.226 Y-11.817 E0.0170
G1 X-37.226 Y14.174 E0.8645
G1 X-37.728 Y14.078 E0.0170
G1 X-38.317 Y14.115 E0.0196
G1 X-38.879 Y14.298 E0.0196
G1 X-39.377 Y14.614 E0.0196
G1 X-39.781 Y15.044 E0.0196
G1 X-40.065 Y15.562 E0.0196
G1 X-40.212 Y16.133 E0.0196
G1 X-40.212 Y16.724 E0.0196
G1 X-40.065 Y17.295 E0.0196
G1 X-39.781 Y17.813 E0.0196
G1 X-39.377 Y18.243 E0.0196
G1 X-38.879 Y18.559 E0.0196
G1 X-38.317 Y18.742 E0.0196
G1 X-37.728 Y18.779 E0.0196
G1 X-37.148 Y18.668 E0.0196
G1 X-36.614 Y18.417 E0.0196
G1 X-36.160 Y18.041 E0.0196
G1 X-35.813 Y17.563 E0.0196
G1 X-35.595 Y17.014 E0.0196
G1 X-35.521 Y16.429 E0.0196
G1 X-35.595 Y15.843 E0.0196
G1 X-35.813 Y15.294 E0.0196
G1 X-36.187 Y14.779 E0.0212
G1 X35.468 Y14.779 E2.3833
G1 X35.219 Y15.044 E0.0121
G1 X34.934 Y15.562 E0.0196
G1 X34.788 Y16.133 E0.0196
G1 X34.788 Y16.724 E0.0196
G1 X34.934 Y17.295 E0.0196
G1 X35.219 Y17.813 E0.0196
G1 X35.623 Y18.243 E0.0196
G1 X36.121 Y18.559 E0.0196
G1 X36.683 Y18.742 E0.0196
G1 X37.272 Y18.779 E0.0196
G1 X37.852 Y18.668 E0.0196
G1 X38.386 Y18.417 E0.0196
G1 X38.840 Y18.040 E0.0196
; outer perimeter
G1 X38.586 Y17.704 F4200
G1 X38.831 Y17.367 F4200
G1 X39.010 Y16.913 F4200
G1 X39.071 Y16.429 F4200
G1 X39.010 Y15.944 F4200
G1 X38.831 Y15.490 F4200
G1 X38.544 Y15.095 F4200
G1 X38.167 Y14.784 F4200
G1 X37.726 Y14.576 F4200
G1 X37.246 Y14.485 F4200
G1 X36.759 Y14.515 F4200
G1 X36.295 Y14.666 F4200
G1 X36.292 Y14.668 F4200
G1 X36.074 Y14.379 F4200
G1 X36.074 Y-11.521 E0.8614 F900
G1 X-36.826 Y-11.521 E2.4247
G1 X-36.826 Y14.379 E0.8614
G1 X36.074 Y14.379 E2.4247
; inner perimeter
; outer perimeter
G1 X37.727 Y-12.215 F4200
G1 X38.170 Y-12.424 E0.0163 F900
G1 X38.547 Y-12.736 E0.0163
G1 X38.834 Y-13.131 E0.0163
G1 X39.014 Y-13.586 E0.0163
G1 X39.076 Y-14.071 E0.0163
G1 X39.014 Y-14.557 E0.0163
G1 X38.834 Y-15.012 E0.0163
G1 X38.547 Y-15.407 E0.0163
G1 X38.170 Y-15.719 E0.0163
G1 X37.727 Y-15.928 E0.0163
G1 X37.246 Y-16.019 E0.0163
G1 X36.758 Y-15.988 E0.0163
G1 X36.293 Y-15.837 E0.0163
G1 X35.880 Y-15.575 E0.0163
G1 X35.545 Y-15.219 E0.0163
G1 X35.309 Y-14.790 E0.0163
G1 X35.188 Y-14.316 E0.0163
G1 X35.188 Y-13.827 E0.0163
G1 X35.309 Y-13.353 E0.0163
G1 X35.545 Y-12.924 E0.0163
G1 X35.880 Y-12.568 E0.0163
G1 X36.293 Y-12.306 E0.0163
G1 X36.758 Y-12.154 E0.0163
G1 X37.246 Y-12.124 E0.0163
G1 X37.727 Y-12.215 E0.0163
; inner perimeter
G1 X37.729 Y-12.221 F4200
G1 X38.167 Y-12.427 F4200
G1 X38.544 Y-12.738 F4200
G1 X38.831 Y-13.133 F4200
G1 X39.010 Y-13.587 F4200
G1 X39.071 Y-14.071 F4200
G1 X39.010 Y-14.556 F4200
G1 X38.831 Y-15.010 F4200
G1 X38.674 Y-15.226 F4200
G1 X47.006 Y-41.721 F4200
G1 X47.524 Y-41.820 E0.0175 F1350
G1 X48.002 Y-42.044 E0.0175
G1 X48.408 Y-42.381 E0.0175
G1 X48.718 Y-42.807 E0.0175
G1 X48.913 Y-43.298 E0.0175
G1 X48.979 Y-43.821 E0.0175
G1 X48.913 Y-44.345 E0.0175
G1 X48.718 Y-44.835 E0.0175
G1 X48.408 Y-45.262 E0.0175
G1 X48.002 Y-45.599 E0.0175
G1 X47.524 Y-45.823 E0.0175
G1 X47.006 Y-45.922 E0.0175
G1 X46.480 Y-45.889 E0.0175
G1 X45.978 Y-45.726 E0.0175
G1 X45.532 Y-45.443 E0.0175
G1 X45.171 Y-45.059 E0.0175
G1 X44.917 Y-44.596 E0.0175
G1 X44.786 Y-44.085 E0.0175
G1 X44.786 Y-43.558 E0.0175
G1 X44.917 Y-43.047 E0.0175
