; G-Code generated by Simplify3D(R) Version 2.2.2
; mai 31, 2015 at 1:41:22 
; Settings Summary
;   processName,Process1
;   applyToModels,aquaMonitorInsert
;   profileLabel,Wanhao Duplicator 4/4X Dual (right extruder)
;   printMaterial,ABS
;   printQuality,High
;   extruderName,Right Extruder,Left Extruder
;   extruderToolheadNumber,0,1
;   extruderDiameter,0.4,0.4
;   extruderAutoWidth,0,0
;   extruderWidth,0.4,0.4
;   extrusionMultiplier,1,1
;   extruderUseRetract,1,1
;   extruderRetractionDistance,1,1
;   extruderExtraRestartDistance,0,0
;   extruderRetractionZLift,0,0
;   extruderRetractionSpeed,1200,1200
;   extruderUseCoasting,0,0
;   extruderCoastingDistance,0.2,0.2
;   extruderUseWipe,0,0
;   extruderWipeDistance,5,5
;   primaryExtruder,0
;   layerHeight,0.1
;   topSolidLayers,4
;   bottomSolidLayers,4
;   perimeterOutlines,4
;   printPerimetersInsideOut,1
;   startPointOption,2
;   startPointOriginX,0
;   startPointOriginY,0
;   startPointOriginZ,300
;   sequentialIslands,0
;   spiralVaseMode,0
;   firstLayerHeightPercentage,90
;   firstLayerWidthPercentage,100
;   firstLayerUnderspeed,0.5
;   useRaft,0
;   raftExtruder,0
;   raftLayers,3
;   raftOffset,3
;   raftSeparationDistance,0.14
;   raftInfill,85
;   disableRaftBaseLayers,0
;   useSkirt,0
;   skirtExtruder,0
;   skirtLayers,2
;   skirtOutlines,2
;   skirtOffset,4
;   infillExtruder,0
;   externalInfillPattern,Rectilinear
;   infillPercentage,30
;   outlineOverlapPercentage,50
;   infillExtrusionWidthPercentage,100
;   minInfillLength,5
;   infillLayerInterval,1
;   randomInfillStartPoint,0
;   infillAngles,45,-45
;   generateSupport,1
;   supportExtruder,0
;   supportInfill,14
;   supportExtraInflation,0.2
;   denseSupportLayers,0
;   denseSupportInfill,60
;   supportLayerInterval,1
;   supportHorizontalPartOffset,0.3
;   supportUpperSeparationLayers,1
;   supportLowerSeparationLayers,1
;   supportGridSpacing,4
;   maxOverhangAngle,45
;   supportAngles,0
;   temperatureName,Right Extruder,Left Extruder,Heated Build Platform
;   temperatureNumber,0,1,0
;   temperatureSetpointCount,1,1,1
;   temperatureSetpointLayers,1,1,1
;   temperatureSetpointTemperatures,230,0,110
;   temperatureStabilizeAtStartup,0,0,0
;   temperatureHeatedBed,0,0,1
;   temperatureRelayBetweenLayers,0,0,0
;   temperatureRelayBetweenLoops,0,0,0
;   fanLayers,1
;   fanSpeeds,0
;   blipFanToFullPower,0
;   adjustSpeedForCooling,1
;   minSpeedLayerTime,15
;   minCoolingSpeedSlowdown,20
;   increaseFanForCooling,0
;   minFanLayerTime,45
;   maxCoolingFanSpeed,100
;   increaseFanForBridging,1
;   bridgingFanSpeed,100
;   use5D,1
;   relativeEdistances,1
;   allowEaxisZeroing,0
;   independentExtruderAxes,1
;   includeM10123,0
;   stickySupport,1
;   detectArcs,0
;   arcReplaceG2G3,0
;   arcRadialCompensation,1
;   gcodeXoffset,0
;   gcodeYoffset,0
;   gcodeZoffset,0
;   overrideMachineDefinition,1
;   machineTypeOverride,0
;   strokeXoverride,220
;   strokeYoverride,140
;   strokeZoverride,150
;   originOffsetXoverride,110
;   originOffsetYoverride,70
;   originOffsetZoverride,0
;   homeXdirOverride,1
;   homeYdirOverride,1
;   homeZdirOverride,-1
;   flipXoverride,1
;   flipYoverride,-1
;   flipZoverride,1
;   startingGcode,; **** Duplicator 4 dual start.gcode ****,M73 P0 ; enable build progress,G162 X Y F3000 ; home XY maximum,G161 Z F1200 ; home Z minimum,G92 Z-5 ; set Z to -5,G1 Z0 ; move Z to 0,G161 Z F100 ; home Z slowly,M132 X Y Z A B ; recall home offsets,M135 T0 ; load right extruder offsets,G1 X-120 Y-70 Z30 F9000 ; move to wait position off table,G130 X20 Y20 Z20 A20 B20 ; lower stepper Vrefs while heating,M126 S[fan_speed_pwm],M140 S[bed0_temperature] T0,M134 T0 ; stabilize bed temperature,M104 S[extruder0_temperature] T0,M133 T0 ; stabilize extruder temperature,G130 X127 Y127 Z40 A127 B127 ; default stepper Vrefs,G92 A0 B0 ; zero extruders,G1 Z0.4 ; position nozzle,G1 E25 F300 ; purge nozzle,G1 X-115 Y-65 Z0.15 F1200 ; slow wipe,G1 X-110 Y-60 Z0.5 F1200 ; lift,G92 A0 B0 ; zero extruders,M73 P1 ;@body (notify GPX body has started),; **** end of start.gcode ****
;   layerChangeGcode,
;   toolChangeGcode,
;   endingGcode,; **** Duplicator 4 dual end.gcode ****,M73 P100 ; end build progress,G1 Z150 F1000 ; send Z axis to bottom of machine,M140 S0 T0 ; cool down HBP,M104 S0 T0 ; cool down right extruder,M104 S0 T1 ; cool down left extruder,M127 ; stop blower fan,G162 X Y F3000 ; home XY maximum,M18 ; disable stepper,M72 P1 ; play Ta-Da song,; **** end of end.gcode ****
;   createX3G,1
;   celebration,0
;   celebrationSong,Random Song
;   createMB5G,0
;   postProcessing,
;   defaultSpeed,3600
;   outlineUnderspeed,0.5
;   solidInfillUnderspeed,0.8
;   supportUnderspeed,0.8
;   rapidXYspeed,4200
;   rapidZspeed,1200
;   minBridgingArea,50
;   bridgingExtrusionMultiplier,1
;   bridgingSpeedMultiplier,0.8
;   filamentDiameter,1.75
;   filamentPricePerKg,46
;   useMinPrintHeight,0
;   minPrintHeight,0
;   useMaxPrintHeight,0
;   maxPrintHeight,0
;   useDiaphragm,0
;   diaphragmLayerInterval,20
;   robustSlicing,1
;   mergeAllIntoSolid,0
;   onlyRetractWhenCrossingOutline,1
;   retractBetweenLayers,1
;   useRetractionMinTravel,0
;   retractionMinTravel,3
;   useRetractionOozeRate,0
;   retractionOozeRate,100
;   onlyWipeOutlines,1
;   toolChangeRetractionDistance,12
;   toolChangeExtraRestartDistance,-0.5
;   toolChangeRetractionSpeed,600
;   allowThinWallGapFill,1
;   thinWallAllowedOverlapPercentage,10
;   horizontalSizeCompensation,0
G90
M83
; **** Duplicator 4 dual start.gcode ****
M73 P0 ; enable build progress
G162 X Y F3000 ; home XY maximum
G161 Z F1200 ; home Z minimum
G92 Z-5 ; set Z to -5
G1 Z0 ; move Z to 0
G161 Z F100 ; home Z slowly
M132 X Y Z A B ; recall home offsets
M135 T0 ; load right extruder offsets
G1 X-120 Y-70 Z30 F9000 ; move to wait position off table
G130 X20 Y20 Z20 A20 B20 ; lower stepper Vrefs while heating
M127
M140 S110 T0
M134 T0 ; stabilize bed temperature
M104 S230 T0
M133 T0 ; stabilize extruder temperature
G130 X127 Y127 Z40 A127 B127 ; default stepper Vrefs
G92 A0 B0 ; zero extruders
G1 Z0.4 ; position nozzle
G1 E25 F300 ; purge nozzle
G1 X-115 Y-65 Z0.15 F1200 ; slow wipe
G1 X-110 Y-60 Z0.5 F1200 ; lift
G92 A0 B0 ; zero extruders
M73 P1 ;@body (notify GPX body has started)
; **** end of start.gcode ****
G1 E-1 F1200
G1 Z0.09 F1200
; layer 1, Z = 0.09
M135 T0
; tool H0.1 W0.4
G1 X-51.838 Y-9.346 F4200
G1 E1 F360
G1 X-53.038 Y-9.346 E0.02 F1575
G1 X-53.038 Y-21.546 E0.2029
G1 X-51.838 Y-21.546 E0.02
G1 X-51.838 Y-9.346 E0.2029
G1 X-72.516 Y-9.346 F4200
G1 X-73.038 Y-9.346 E0.0087 F1575
G1 X-73.038 Y-21.546 E0.2029
G1 X-72.516 Y-21.546 E0.0087
G1 X-72.516 Y-9.346 E0.2029
G1 X-51.438 Y-8.946 F4200
G1 X-73.438 Y-8.946 E0.3659 F1350
G1 X-73.438 Y-21.946 E0.2162
G1 X-51.438 Y-21.946 E0.3659
G1 X-51.438 Y-8.946 E0.2162
G1 X-51.038 Y-8.546 F4200
G1 X-73.838 Y-8.546 E0.3792 F1125
G1 X-73.838 Y-22.346 E0.2295
G1 X-51.038 Y-22.346 E0.3792
G1 X-51.038 Y-8.546 E0.2295
G1 X-50.638 Y-8.146 F4200
G1 X-74.238 Y-8.146 E0.3925 F900
G1 X-74.238 Y-22.746 E0.2428
G1 X-50.638 Y-22.746 E0.3925
G1 X-50.638 Y-8.146 E0.2428
G1 E-1 F1200
G1 X-66.774 Y-14.947 F4200
G1 E1 F1200
G1 X-67.346 Y-14.084 E0.0172 F1575
G1 X-67.892 Y-14.911 E0.0165
G1 X-66.774 Y-14.947 E0.0186
G1 E-1 F1200
G1 X-53.438 Y-9.946 F4200
G1 E1 F1200
G1 X-53.438 Y-20.888 E0.182 F1350
G1 X-72.116 Y-20.888 E0.3106
G1 X-72.116 Y-9.946 E0.182
G1 X-53.438 Y-9.946 E0.3106
G1 E-1 F1200
G1 X-66.012 Y-15.372 F4200
G1 E1 F1200
G1 X-67.347 Y-13.359 E0.0402 F1350
G1 X-68.619 Y-15.287 E0.0384
G1 X-66.012 Y-15.372 E0.0434
G1 E-1 F1200
G1 X-53.838 Y-10.346 F4200
G1 E1 F1200
G1 X-53.838 Y-15.587 E0.0872 F1125
G1 X-65.914 Y-14.795 E0.2013
G1 X-67.348 Y-12.634 E0.0431
G1 X-69.347 Y-15.664 E0.0604
G1 X-53.838 Y-16.165 E0.258
G1 X-53.838 Y-20.488 E0.0719
G1 X-71.716 Y-20.488 E0.2973
G1 X-71.716 Y-10.346 E0.1687
G1 X-53.838 Y-10.346 E0.2973
G1 X-54.238 Y-10.746 F4200
G1 X-54.238 Y-15.16 E0.0734 F900
G1 X-65.691 Y-14.409 E0.1909
G1 X-67.349 Y-11.909 E0.0499
G1 X-70.074 Y-16.041 E0.0823
G1 X-54.238 Y-16.553 E0.2635
G1 X-54.238 Y-20.088 E0.0588
G1 X-71.316 Y-20.088 E0.284
G1 X-71.316 Y-10.746 E0.1554
G1 X-54.238 Y-10.746 E0.284
G1 X-53.238 Y-9.589 F4200
G1 X-53.238 Y-9.15 E0.0073 F1800
G1 X-53.676 Y-9.15 E0.0073
G1 X-53.238 Y-9.589 E0.0103
G1 X-53.238 Y-9.742 E0.0026
G1 X-53.65 Y-9.742 E0.0069
G1 X-54.242 Y-9.15 E0.0139
G1 X-54.808 Y-9.15 E0.0094
G1 X-54.216 Y-9.742 E0.0139
G1 X-54.781 Y-9.742 E0.0094
G1 X-55.373 Y-9.15 E0.0139
G1 X-55.939 Y-9.15 E0.0094
G1 X-55.347 Y-9.742 E0.0139
G1 X-55.913 Y-9.742 E0.0094
G1 X-56.505 Y-9.15 E0.0139
G1 X-57.07 Y-9.15 E0.0094
G1 X-56.478 Y-9.742 E0.0139
G1 X-57.044 Y-9.742 E0.0094
G1 X-57.636 Y-9.15 E0.0139
G1 X-58.202 Y-9.15 E0.0094
G1 X-57.61 Y-9.742 E0.0139
G1 X-58.175 Y-9.742 E0.0094
G1 X-58.767 Y-9.15 E0.0139
G1 X-59.333 Y-9.15 E0.0094
G1 X-58.741 Y-9.742 E0.0139
G1 X-59.307 Y-9.742 E0.0094
G1 X-59.899 Y-9.15 E0.0139
G1 X-60.464 Y-9.15 E0.0094
G1 X-59.872 Y-9.742 E0.0139
G1 X-60.438 Y-9.742 E0.0094
G1 X-61.03 Y-9.15 E0.0139
G1 X-61.596 Y-9.15 E0.0094
G1 X-61.004 Y-9.742 E0.0139
G1 X-61.57 Y-9.742 E0.0094
G1 X-62.162 Y-9.15 E0.0139
G1 X-62.727 Y-9.15 E0.0094
G1 X-62.135 Y-9.742 E0.0139
G1 X-62.701 Y-9.742 E0.0094
G1 X-63.293 Y-9.15 E0.0139
G1 X-63.859 Y-9.15 E0.0094
G1 X-63.267 Y-9.742 E0.0139
G1 X-63.832 Y-9.742 E0.0094
G1 X-64.424 Y-9.15 E0.0139
G1 X-64.99 Y-9.15 E0.0094
G1 X-64.398 Y-9.742 E0.0139
G1 X-64.964 Y-9.742 E0.0094
G1 X-65.556 Y-9.15 E0.0139
G1 X-66.121 Y-9.15 E0.0094
G1 X-65.529 Y-9.742 E0.0139
G1 X-66.095 Y-9.742 E0.0094
G1 X-66.687 Y-9.15 E0.0139
G1 X-67.253 Y-9.15 E0.0094
G1 X-66.661 Y-9.742 E0.0139
G1 X-67.226 Y-9.742 E0.0094
G1 X-67.818 Y-9.15 E0.0139
G1 X-68.384 Y-9.15 E0.0094
G1 X-67.792 Y-9.742 E0.0139
G1 X-68.358 Y-9.742 E0.0094
G1 X-68.95 Y-9.15 E0.0139
G1 X-69.515 Y-9.15 E0.0094
G1 X-68.923 Y-9.742 E0.0139
G1 X-69.489 Y-9.742 E0.0094
G1 X-70.081 Y-9.15 E0.0139
G1 X-70.647 Y-9.15 E0.0094
G1 X-70.055 Y-9.742 E0.0139
G1 X-70.621 Y-9.742 E0.0094
G1 X-71.213 Y-9.15 E0.0139
G1 X-71.778 Y-9.15 E0.0094
G1 X-71.186 Y-9.742 E0.0139
G1 X-71.752 Y-9.742 E0.0094
G1 X-72.316 Y-9.178 E0.0133
G1 E-1 F1200
G1 X-65.93 Y-14.998 F4200
G1 E1 F1200
G1 X-65.339 Y-15.589 E0.0139 F1800
G1 X-64.754 Y-15.608 E0.0097
G1 X-65.325 Y-15.038 E0.0134
G1 X-64.719 Y-15.078 E0.0101
G1 X-64.17 Y-15.627 E0.0129
G1 X-63.585 Y-15.646 E0.0097
G1 X-64.114 Y-15.117 E0.0124
G1 X-63.509 Y-15.157 E0.0101
G1 X-63.001 Y-15.665 E0.0119
G1 X-62.416 Y-15.684 E0.0097
G1 X-62.903 Y-15.197 E0.0115
G1 X-62.298 Y-15.237 E0.0101
G1 X-61.832 Y-15.703 E0.011
G1 X-61.247 Y-15.722 E0.0097
G1 X-61.692 Y-15.276 E0.0105
G1 X-61.087 Y-15.316 E0.0101
G1 X-60.662 Y-15.741 E0.01
G1 X-60.078 Y-15.76 E0.0097
G1 X-60.482 Y-15.356 E0.0095
G1 X-59.876 Y-15.395 E0.0101
G1 X-59.493 Y-15.778 E0.009
G1 X-58.909 Y-15.797 E0.0097
G1 X-59.271 Y-15.435 E0.0085
G1 X-58.666 Y-15.475 E0.0101
G1 X-58.324 Y-15.816 E0.008
G1 X-57.739 Y-15.835 E0.0097
G1 X-58.06 Y-15.514 E0.0075
G1 X-57.455 Y-15.554 E0.0101
G1 X-57.155 Y-15.854 E0.0071
G1 X-56.57 Y-15.873 E0.0097
G1 X-56.849 Y-15.594 E0.0066
G1 X-56.244 Y-15.634 E0.0101
G1 X-55.986 Y-15.892 E0.0061
G1 X-55.401 Y-15.911 E0.0097
G1 X-55.639 Y-15.673 E0.0056
G1 X-55.033 Y-15.713 E0.0101
G1 X-54.817 Y-15.93 E0.0051
G1 X-54.232 Y-15.949 E0.0097
G1 X-54.428 Y-15.753 E0.0046
G1 X-53.822 Y-15.792 E0.0101
G1 X-53.647 Y-15.967 E0.0041
G1 X-53.638 Y-15.968 E0.0002
G1 X-53.638 Y-15.804 E0.0027
G1 X-53.822 Y-15.792 E0.0031
G1 X-53.614 Y-21.092 F4200
G1 X-53.238 Y-21.092 E0.0063 F1800
G1 X-53.238 Y-21.468 E0.0063
G1 X-53.614 Y-21.092 E0.0088
G1 X-54.18 Y-21.092 E0.0094
G1 X-53.529 Y-21.742 E0.0153
G1 X-54.095 Y-21.742 E0.0094
G1 X-54.746 Y-21.092 E0.0153
G1 X-55.311 Y-21.092 E0.0094
G1 X-54.661 Y-21.742 E0.0153
G1 X-55.226 Y-21.742 E0.0094
G1 X-55.877 Y-21.092 E0.0153
G1 X-56.443 Y-21.092 E0.0094
G1 X-55.792 Y-21.742 E0.0153
G1 X-56.358 Y-21.742 E0.0094
G1 X-57.008 Y-21.092 E0.0153
G1 X-57.574 Y-21.092 E0.0094
G1 X-56.923 Y-21.742 E0.0153
G1 X-57.489 Y-21.742 E0.0094
G1 X-58.14 Y-21.092 E0.0153
G1 X-58.705 Y-21.092 E0.0094
G1 X-58.055 Y-21.742 E0.0153
G1 X-58.621 Y-21.742 E0.0094
G1 X-59.271 Y-21.092 E0.0153
G1 X-59.837 Y-21.092 E0.0094
G1 X-59.186 Y-21.742 E0.0153
G1 X-59.752 Y-21.742 E0.0094
G1 X-60.402 Y-21.092 E0.0153
G1 X-60.968 Y-21.092 E0.0094
G1 X-60.318 Y-21.742 E0.0153
G1 X-60.883 Y-21.742 E0.0094
G1 X-61.534 Y-21.092 E0.0153
G1 X-62.099 Y-21.092 E0.0094
G1 X-61.449 Y-21.742 E0.0153
G1 X-62.015 Y-21.742 E0.0094
G1 X-62.665 Y-21.092 E0.0153
G1 X-63.231 Y-21.092 E0.0094
G1 X-62.58 Y-21.742 E0.0153
G1 X-63.146 Y-21.742 E0.0094
G1 X-63.796 Y-21.092 E0.0153
G1 X-64.362 Y-21.092 E0.0094
G1 X-63.712 Y-21.742 E0.0153
G1 X-64.277 Y-21.742 E0.0094
G1 X-64.928 Y-21.092 E0.0153
G1 X-65.494 Y-21.092 E0.0094
G1 X-64.843 Y-21.742 E0.0153
G1 X-65.409 Y-21.742 E0.0094
G1 X-66.059 Y-21.092 E0.0153
G1 X-66.625 Y-21.092 E0.0094
G1 X-65.974 Y-21.742 E0.0153
G1 X-66.54 Y-21.742 E0.0094
G1 X-67.191 Y-21.092 E0.0153
G1 X-67.756 Y-21.092 E0.0094
G1 X-67.106 Y-21.742 E0.0153
G1 X-67.671 Y-21.742 E0.0094
G1 X-68.322 Y-21.092 E0.0153
G1 X-68.888 Y-21.092 E0.0094
G1 X-68.237 Y-21.742 E0.0153
G1 X-68.803 Y-21.742 E0.0094
G1 X-69.453 Y-21.092 E0.0153
G1 X-70.019 Y-21.092 E0.0094
G1 X-69.369 Y-21.742 E0.0153
G1 X-69.934 Y-21.742 E0.0094
G1 X-70.585 Y-21.092 E0.0153
G1 X-71.15 Y-21.092 E0.0094
G1 X-70.5 Y-21.742 E0.0153
G1 X-71.066 Y-21.742 E0.0094
G1 X-71.716 Y-21.092 E0.0153
G1 X-72.282 Y-21.092 E0.0094
G1 X-71.631 Y-21.742 E0.0153
G1 X-72.197 Y-21.742 E0.0094
G1 X-72.316 Y-21.624 E0.0028
G1 X-72.838 Y-21.101 F4200
G1 X-72.716 Y-21.224 E0.0029 F1440
G1 X-72.716 Y-20.658 E0.0094
G1 X-72.838 Y-20.536 E0.0029
G1 X-72.838 Y-19.97 E0.0094
G1 X-72.716 Y-20.092 E0.0029
G1 X-72.716 Y-19.526 E0.0094
G1 X-72.838 Y-19.404 E0.0029
G1 X-72.838 Y-18.838 E0.0094
G1 X-72.716 Y-18.961 E0.0029
G1 X-72.716 Y-18.395 E0.0094
G1 X-72.838 Y-18.273 E0.0029
G1 X-72.838 Y-17.707 E0.0094
G1 X-72.716 Y-17.829 E0.0029
G1 X-72.716 Y-17.264 E0.0094
G1 X-72.838 Y-17.141 E0.0029
G1 X-72.838 Y-16.576 E0.0094
G1 X-72.716 Y-16.698 E0.0029
G1 X-72.716 Y-16.132 E0.0094
G1 X-72.838 Y-16.01 E0.0029
G1 X-72.838 Y-15.444 E0.0094
G1 X-72.716 Y-15.567 E0.0029
G1 X-72.716 Y-15.001 E0.0094
G1 X-72.838 Y-14.879 E0.0029
G1 X-72.838 Y-14.313 E0.0094
G1 X-72.716 Y-14.435 E0.0029
G1 X-72.716 Y-13.87 E0.0094
G1 X-72.838 Y-13.747 E0.0029
G1 X-72.838 Y-13.182 E0.0094
G1 X-72.716 Y-13.304 E0.0029
G1 X-72.716 Y-12.738 E0.0094
G1 X-72.838 Y-12.616 E0.0029
G1 X-72.838 Y-12.05 E0.0094
G1 X-72.716 Y-12.173 E0.0029
G1 X-72.716 Y-11.607 E0.0094
G1 X-72.838 Y-11.485 E0.0029
G1 X-72.838 Y-10.919 E0.0094
G1 X-72.716 Y-11.041 E0.0029
G1 X-72.716 Y-10.475 E0.0094
G1 X-72.838 Y-10.353 E0.0029
G1 X-72.838 Y-9.788 E0.0094
G1 X-72.716 Y-9.91 E0.0029
G1 X-72.716 Y-9.546 E0.006
G1 X-72.838 Y-9.546 E0.002
G1 X-72.838 Y-9.788 E0.004
G1 E-1 F1200
G1 X-67.452 Y-14.608 F4200
G1 E1 F1200
G1 X-67.331 Y-14.729 E0.0028 F1440
G1 X-67.155 Y-14.734 E0.0029
G1 X-67.346 Y-14.446 E0.0057
G1 X-67.452 Y-14.608 E0.0032
G1 X-67.528 Y-14.722 E0.0023
G1 X-67.331 Y-14.729 E0.0033
G1 E-1 F1200
G1 X-52.838 Y-21.302 F4200
G1 E1 F1200
G1 X-52.794 Y-21.346 E0.001 F1440
G1 X-52.228 Y-21.346 E0.0094
G1 X-52.838 Y-20.737 E0.0143
G1 X-52.838 Y-20.171 E0.0094
G1 X-52.038 Y-20.971 E0.0188
G1 X-52.038 Y-20.405 E0.0094
G1 X-52.838 Y-19.605 E0.0188
G1 X-52.838 Y-19.04 E0.0094
G1 X-52.038 Y-19.84 E0.0188
G1 X-52.038 Y-19.274 E0.0094
G1 X-52.838 Y-18.474 E0.0188
G1 X-52.838 Y-17.908 E0.0094
G1 X-52.038 Y-18.708 E0.0188
G1 X-52.038 Y-18.142 E0.0094
G1 X-52.838 Y-17.342 E0.0188
G1 X-52.838 Y-16.777 E0.0094
G1 X-52.038 Y-17.577 E0.0188
G1 X-52.038 Y-17.011 E0.0094
G1 X-52.838 Y-16.211 E0.0188
G1 X-52.838 Y-15.645 E0.0094
G1 X-52.038 Y-16.445 E0.0188
G1 X-52.038 Y-15.88 E0.0094
G1 X-52.838 Y-15.08 E0.0188
G1 X-52.838 Y-14.514 E0.0094
G1 X-52.038 Y-15.314 E0.0188
G1 X-52.038 Y-14.748 E0.0094
G1 X-52.838 Y-13.948 E0.0188
G1 X-52.838 Y-13.383 E0.0094
G1 X-52.038 Y-14.183 E0.0188
G1 X-52.038 Y-13.617 E0.0094
